<?xml version="1.0" encoding="UTF-8"?>
<map version="1.10" tiledversion="1.11.2" orientation="orthogonal" renderorder="right-down" width="30" height="20" tilewidth="16" tileheight="16" infinite="1" nextlayerid="3" nextobjectid="1">
 <tileset firstgid="1" source="../AppData/Roaming/Microsoft/Windows/Network Shortcuts/Walls.tsx"/>
 <tileset firstgid="562" source="Walls&amp;Floors.tsx"/>
 <layer id="2" name="Floor" width="30" height="20">
  <data encoding="csv">
   <chunk x="-32" y="-16" width="16" height="16">
0,0,0,0,0,0,0,0,0,0,0,0,0,0,0,0,
0,0,0,0,0,0,0,0,0,0,0,0,0,0,0,0,
0,0,0,0,0,0,0,0,0,0,0,0,0,0,0,0,
0,0,0,0,0,0,0,0,0,0,0,0,0,0,0,0,
0,0,0,0,0,0,0,0,0,0,0,0,0,0,0,0,
0,0,0,0,0,0,0,0,0,0,0,0,0,0,0,0,
0,0,0,0,0,0,0,0,0,0,0,0,0,830,865,0,
0,0,0,0,0,0,0,0,0,0,0,0,829,830,863,830,
0,0,0,0,0,0,0,0,0,0,0,0,0,862,862,831,
0,0,0,0,0,0,0,0,0,0,0,0,0,865,865,862,
0,0,0,0,0,0,0,0,0,0,0,0,0,829,862,865,
0,0,0,0,0,0,0,0,0,0,0,0,0,829,829,863,
0,0,0,0,0,0,0,0,0,0,0,0,0,864,829,828,
0,0,0,0,0,0,0,0,0,0,0,0,863,864,861,863,
0,0,0,0,0,0,0,0,0,0,0,0,865,862,865,831,
0,0,0,0,0,0,0,0,0,0,0,0,863,864,830,828
</chunk>
   <chunk x="-16" y="-16" width="16" height="16">
0,0,0,0,0,0,0,0,0,0,0,0,0,0,0,0,
0,0,0,0,0,0,0,0,0,0,0,0,0,0,0,0,
0,0,0,0,0,0,0,0,0,0,0,0,0,0,0,0,
0,0,0,0,0,0,0,0,0,0,0,0,0,0,0,0,
0,0,0,0,0,0,0,0,0,0,0,0,0,0,0,0,
0,0,0,0,0,0,0,0,0,0,0,0,0,0,0,0,
0,0,0,0,0,0,0,0,0,0,0,0,0,0,0,0,
861,864,830,863,831,862,828,830,832,862,864,829,828,865,831,861,
830,863,828,829,830,863,864,861,829,865,832,861,830,861,832,832,
828,832,862,831,861,861,830,829,832,864,832,830,830,828,830,861,
828,828,861,831,829,862,829,828,831,863,830,865,861,863,865,830,
863,832,865,829,865,864,865,865,831,863,865,865,864,861,863,863,
829,832,861,828,828,832,828,831,862,862,830,828,832,832,865,863,
861,864,828,865,861,832,863,863,862,829,831,864,828,862,862,865,
865,832,832,828,829,830,828,832,861,862,828,830,828,831,832,828,
831,863,829,829,864,865,861,831,830,831,830,832,831,831,830,864
</chunk>
   <chunk x="0" y="-16" width="16" height="16">
0,0,0,0,0,0,0,0,0,0,0,0,0,0,0,0,
0,0,0,0,0,0,0,0,0,0,0,0,0,0,0,0,
0,0,0,0,0,0,0,0,0,0,0,0,0,0,0,0,
0,0,0,0,0,0,0,0,0,0,0,0,0,0,0,0,
0,0,0,0,0,0,0,0,0,0,0,0,0,0,0,0,
0,0,0,0,0,0,0,0,0,0,0,0,0,0,0,0,
0,0,0,0,0,0,0,0,0,0,0,0,0,0,0,0,
865,862,861,832,832,831,830,829,865,863,830,864,832,832,863,862,
831,828,828,861,861,864,864,861,829,862,861,865,830,831,828,862,
832,828,864,865,832,832,862,828,831,829,828,864,831,828,862,863,
830,832,830,829,864,861,865,831,861,862,828,863,862,829,828,863,
864,864,862,863,832,865,832,832,830,829,831,830,832,832,865,863,
863,861,831,828,828,830,828,830,863,828,828,830,831,864,828,831,
864,830,861,829,861,830,832,829,865,831,862,832,832,832,864,865,
864,861,865,861,828,862,864,828,862,865,862,832,830,829,862,864,
829,861,831,862,830,830,862,863,829,864,862,831,865,829,861,864
</chunk>
   <chunk x="16" y="-16" width="16" height="16">
0,0,0,0,0,0,0,0,0,0,0,0,0,0,0,0,
0,0,0,0,0,0,0,0,0,0,0,0,0,0,0,0,
0,0,0,0,0,0,0,0,0,0,0,0,0,0,0,0,
0,0,0,0,0,0,0,0,0,0,0,0,0,0,0,0,
0,0,0,0,0,0,0,0,0,0,0,0,0,0,0,0,
0,0,0,0,0,0,0,0,0,0,0,0,0,0,0,0,
0,0,0,0,0,0,0,0,0,0,0,0,0,0,0,0,
828,861,863,0,0,0,0,0,0,0,0,0,0,0,0,0,
828,830,828,0,0,0,0,0,0,0,0,0,0,0,0,0,
863,865,863,0,0,0,0,0,0,0,0,0,0,0,0,0,
828,831,831,0,0,0,0,0,0,0,0,0,0,0,0,0,
864,828,863,0,0,0,0,0,0,0,0,0,0,0,0,0,
865,863,861,0,0,0,0,0,0,0,0,0,0,0,0,0,
830,865,862,0,0,0,0,0,0,0,0,0,0,0,0,0,
864,830,864,0,0,0,0,0,0,0,0,0,0,0,0,0,
861,861,830,0,0,0,0,0,0,0,0,0,0,0,0,0
</chunk>
   <chunk x="-32" y="0" width="16" height="16">
0,0,0,0,0,0,0,0,0,0,0,0,861,863,829,862,
0,0,0,0,0,0,0,0,0,0,0,0,0,828,864,831,
0,0,0,0,0,0,0,0,0,0,0,0,0,862,862,864,
0,0,0,0,0,0,0,0,0,0,0,0,0,0,0,0,
0,0,0,0,0,0,0,0,0,0,0,0,0,0,0,0,
0,0,0,0,0,0,0,0,0,0,0,0,0,0,0,0,
0,0,0,0,0,0,0,0,0,0,0,0,0,0,0,0,
0,0,0,0,0,0,0,0,0,0,0,0,0,0,0,0,
0,0,0,0,0,0,0,0,0,0,0,0,0,0,0,0,
0,0,0,0,0,0,0,0,0,0,0,0,0,0,0,0,
0,0,0,0,0,0,0,0,0,0,0,0,0,0,0,0,
0,0,0,0,0,0,0,0,0,0,0,0,0,0,0,0,
0,0,0,0,0,0,0,0,0,0,0,0,0,0,0,0,
0,0,0,0,0,0,0,0,0,0,0,0,0,0,0,0,
0,0,0,0,0,0,0,0,0,0,0,0,0,0,0,0,
0,0,0,0,0,0,0,0,0,0,0,0,0,0,0,0
</chunk>
   <chunk x="-16" y="0" width="16" height="16">
831,831,831,865,828,863,862,829,861,864,863,832,828,865,865,862,
864,831,865,864,865,832,832,863,863,865,829,865,832,864,862,861,
864,861,831,828,830,865,861,864,863,861,832,863,830,865,832,829,
0,0,0,0,0,0,0,0,0,0,0,0,0,0,0,0,
0,0,0,0,0,0,0,0,0,0,0,0,0,0,0,0,
0,0,0,0,0,0,0,0,0,0,0,0,0,0,0,0,
0,0,0,0,0,0,0,0,0,0,0,0,0,0,0,0,
0,0,0,0,0,0,0,0,0,0,0,0,0,0,0,0,
0,0,0,0,0,0,0,0,0,0,0,0,0,0,0,0,
0,0,0,0,0,0,0,0,0,0,0,0,0,0,0,0,
0,0,0,0,0,0,0,0,0,0,0,0,0,0,0,0,
0,0,0,0,0,0,0,0,0,0,0,0,0,0,0,0,
0,0,0,0,0,0,0,0,0,0,0,0,0,0,0,0,
0,0,0,0,0,0,0,0,0,0,0,0,0,0,0,0,
0,0,0,0,0,0,0,0,0,0,0,0,0,0,0,0,
0,0,0,0,0,0,0,0,0,0,0,0,0,0,0,0
</chunk>
   <chunk x="0" y="0" width="16" height="16">
863,865,862,0,831,830,864,861,0,0,0,0,0,0,0,0,
832,832,828,864,830,864,832,828,0,0,0,0,0,0,0,0,
865,830,831,861,864,863,864,831,0,0,0,0,0,0,0,0,
0,0,0,0,830,865,864,830,0,0,0,0,0,0,0,0,
0,0,0,0,0,0,0,0,0,0,0,0,0,0,0,0,
0,0,0,0,0,0,0,0,0,0,0,0,0,0,0,0,
0,0,0,0,0,0,0,0,0,0,0,0,0,0,0,0,
0,0,0,0,0,0,0,0,0,0,0,0,0,0,0,0,
0,0,0,0,0,0,0,0,0,0,0,0,0,0,0,0,
0,0,0,0,0,0,0,0,0,0,0,0,0,0,0,0,
0,0,0,0,0,0,0,0,0,0,0,0,0,0,0,0,
0,0,0,0,0,0,0,0,0,0,0,0,0,0,0,0,
0,0,0,0,0,0,0,0,0,0,0,0,0,0,0,0,
0,0,0,0,0,0,0,0,0,0,0,0,0,0,0,0,
0,0,0,0,0,0,0,0,0,0,0,0,0,0,0,0,
0,0,0,0,0,0,0,0,0,0,0,0,0,0,0,0
</chunk>
  </data>
 </layer>
 <layer id="1" name="Tile Layer 1" width="30" height="20">
  <data encoding="csv">
   <chunk x="-32" y="-16" width="16" height="16">
0,0,0,0,0,0,0,0,0,0,0,0,0,0,0,0,
0,0,0,0,0,0,0,0,0,0,0,0,0,0,0,0,
0,0,0,0,0,0,0,0,0,0,0,0,0,0,0,0,
0,0,0,0,0,0,0,0,0,0,0,0,600,603,601,603,
0,0,0,0,0,0,0,0,0,0,0,0,633,634,669,667,
0,0,0,0,0,0,0,0,0,0,0,0,666,636,636,636,
0,0,0,0,0,0,0,0,0,0,0,0,699,733,734,735,
0,0,0,0,0,0,0,0,0,0,0,0,633,0,0,0,
0,0,0,0,0,0,0,0,0,0,0,0,666,0,0,0,
0,0,0,0,0,0,0,0,0,0,0,0,699,0,0,0,
0,0,0,0,0,0,0,0,0,0,0,0,633,0,0,0,
0,0,0,0,0,0,0,0,0,0,0,0,666,0,0,0,
0,0,0,0,0,0,0,0,0,0,0,0,699,0,0,0,
0,0,0,0,0,0,0,0,0,0,0,0,633,0,0,0,
0,0,0,0,0,0,0,0,0,0,0,0,666,0,0,0,
0,0,0,0,0,0,0,0,0,0,0,0,699,0,0,0
</chunk>
   <chunk x="-16" y="-16" width="16" height="16">
0,0,0,0,0,0,0,0,0,0,0,0,0,0,0,0,
0,0,0,0,0,0,0,0,0,0,0,0,0,0,0,0,
0,0,0,0,0,0,0,0,0,0,0,0,0,0,0,0,
603,603,603,602,601,603,601,602,603,602,603,604,0,0,0,0,
668,667,636,667,636,635,668,634,669,634,634,637,0,0,0,0,
634,635,634,669,634,669,667,636,635,634,669,600,602,603,601,602,
733,734,735,733,734,735,735,733,733,734,735,633,635,636,634,635,
0,0,0,0,0,0,0,0,0,0,0,666,668,669,667,668,
0,0,0,0,0,0,0,0,0,0,0,732,734,735,733,733,
0,0,0,0,0,0,0,0,0,0,0,0,0,0,0,0,
0,0,0,0,0,0,0,0,0,0,0,0,0,0,0,0,
0,0,0,0,0,0,0,0,0,0,0,0,0,0,0,0,
0,0,0,0,0,0,0,0,0,0,0,0,0,0,0,0,
0,0,0,0,0,0,0,0,0,0,0,0,0,0,0,0,
0,0,0,0,0,0,0,0,0,0,0,0,0,0,0,0,
0,0,0,0,0,0,0,0,0,0,0,0,0,0,0,0
</chunk>
   <chunk x="0" y="-16" width="16" height="16">
0,0,0,0,0,0,0,0,0,0,0,0,0,0,0,0,
0,0,0,0,0,0,0,0,0,0,0,0,0,0,0,0,
0,0,0,0,0,0,0,0,0,0,0,0,0,0,0,0,
0,0,0,0,600,602,601,601,602,603,603,603,602,601,603,603,
0,0,0,0,633,668,635,634,635,668,634,636,669,634,634,669,
603,601,601,602,604,636,636,634,636,636,635,668,668,669,635,668,
636,634,634,635,637,735,733,734,733,733,733,735,733,735,734,734,
669,667,667,668,670,0,0,0,0,0,0,0,0,0,0,0,
733,733,733,734,736,0,0,0,0,0,0,0,0,0,0,0,
0,0,0,0,0,0,0,0,0,0,0,0,0,0,0,0,
0,0,0,0,0,0,0,0,0,0,0,0,0,0,0,0,
0,0,0,0,0,0,0,0,0,0,0,0,0,0,0,0,
0,0,0,0,0,0,0,0,0,0,0,0,0,0,0,0,
0,0,0,0,0,0,0,0,0,0,0,0,0,0,0,0,
0,0,0,0,0,0,0,0,0,0,0,0,0,0,0,0,
0,0,0,0,0,0,0,0,0,0,0,0,0,0,0,0
</chunk>
   <chunk x="16" y="-16" width="16" height="16">
0,0,0,0,0,0,0,0,0,0,0,0,0,0,0,0,
0,0,0,0,0,0,0,0,0,0,0,0,0,0,0,0,
0,0,0,0,0,0,0,0,0,0,0,0,0,0,0,0,
603,603,603,604,0,0,0,0,0,0,0,0,0,0,0,0,
668,669,636,637,0,0,0,0,0,0,0,0,0,0,0,0,
634,636,634,670,0,0,0,0,0,0,0,0,0,0,0,0,
733,733,734,703,0,0,0,0,0,0,0,0,0,0,0,0,
0,0,0,637,0,0,0,0,0,0,0,0,0,0,0,0,
0,0,0,670,0,0,0,0,0,0,0,0,0,0,0,0,
0,0,0,670,0,0,0,0,0,0,0,0,0,0,0,0,
0,0,0,637,0,0,0,0,0,0,0,0,0,0,0,0,
0,0,0,670,0,0,0,0,0,0,0,0,0,0,0,0,
0,0,0,637,0,0,0,0,0,0,0,0,0,0,0,0,
0,0,0,637,0,0,0,0,0,0,0,0,0,0,0,0,
0,0,0,637,0,0,0,0,0,0,0,0,0,0,0,0,
0,0,0,703,0,0,0,0,0,0,0,0,0,0,0,0
</chunk>
   <chunk x="-32" y="0" width="16" height="16">
0,0,0,0,0,0,0,0,0,0,0,0,633,0,0,0,
0,0,0,0,0,0,0,0,0,0,0,0,666,0,0,0,
0,0,0,0,0,0,0,0,0,0,0,0,699,0,0,0,
0,0,0,0,0,0,0,0,0,0,0,0,732,734,734,734,
0,0,0,0,0,0,0,0,0,0,0,0,0,0,0,0,
0,0,0,0,0,0,0,0,0,0,0,0,0,0,0,0,
0,0,0,0,0,0,0,0,0,0,0,0,0,0,0,0,
0,0,0,0,0,0,0,0,0,0,0,0,0,0,0,0,
0,0,0,0,0,0,0,0,0,0,0,0,0,0,0,0,
0,0,0,0,0,0,0,0,0,0,0,0,0,0,0,0,
0,0,0,0,0,0,0,0,0,0,0,0,0,0,0,0,
0,0,0,0,0,0,0,0,0,0,0,0,0,0,0,0,
0,0,0,0,0,0,0,0,0,0,0,0,0,0,0,0,
0,0,0,0,0,0,0,0,0,0,0,0,0,0,0,0,
0,0,0,0,0,0,0,0,0,0,0,0,0,0,0,0,
0,0,0,0,0,0,0,0,0,0,0,0,0,0,0,0
</chunk>
   <chunk x="-16" y="0" width="16" height="16">
0,0,0,0,0,0,0,0,0,0,0,0,0,0,0,0,
0,0,0,0,0,0,0,0,0,0,0,0,0,0,0,0,
0,0,0,0,0,0,0,0,0,0,0,0,0,0,0,0,
734,734,734,734,734,734,734,734,734,734,734,734,734,734,734,734,
0,0,0,0,0,0,0,0,0,0,0,0,0,0,0,0,
0,0,0,0,0,0,0,0,0,0,0,0,0,0,0,0,
0,0,0,0,0,0,0,0,0,0,0,0,0,0,0,0,
0,0,0,0,0,0,0,0,0,0,0,0,0,0,0,0,
0,0,0,0,0,0,0,0,0,0,0,0,0,0,0,0,
0,0,0,0,0,0,0,0,0,0,0,0,0,0,0,0,
0,0,0,0,0,0,0,0,0,0,0,0,0,0,0,0,
0,0,0,0,0,0,0,0,0,0,0,0,0,0,0,0,
0,0,0,0,0,0,0,0,0,0,0,0,0,0,0,0,
0,0,0,0,0,0,0,0,0,0,0,0,0,0,0,0,
0,0,0,0,0,0,0,0,0,0,0,0,0,0,0,0,
0,0,0,0,0,0,0,0,0,0,0,0,0,0,0,0
</chunk>
   <chunk x="0" y="0" width="16" height="16">
0,0,0,637,0,0,0,0,600,735,734,735,733,735,733,735,
0,0,0,703,0,0,0,0,633,0,0,0,0,0,0,0,
0,0,0,670,0,0,0,0,633,0,0,0,0,0,0,0,
734,734,734,736,934,934,934,934,934,0,0,0,0,0,0,0,
0,0,0,0,0,0,0,0,0,0,0,0,0,0,0,0,
0,0,0,0,0,0,0,0,0,0,0,0,0,0,0,0,
0,0,0,0,0,0,0,0,0,0,0,0,0,0,0,0,
0,0,0,0,0,0,0,0,0,0,0,0,0,0,0,0,
0,0,0,0,0,0,0,0,0,0,0,0,0,0,0,0,
0,0,0,0,0,0,0,0,0,0,0,0,0,0,0,0,
0,0,0,0,0,0,0,0,0,0,0,0,0,0,0,0,
0,0,0,0,0,0,0,0,0,0,0,0,0,0,0,0,
0,0,0,0,0,0,0,0,0,0,0,0,0,0,0,0,
0,0,0,0,0,0,0,0,0,0,0,0,0,0,0,0,
0,0,0,0,0,0,0,0,0,0,0,0,0,0,0,0,
0,0,0,0,0,0,0,0,0,0,0,0,0,0,0,0
</chunk>
   <chunk x="16" y="0" width="16" height="16">
734,733,733,736,0,0,0,0,0,0,0,0,0,0,0,0,
0,0,0,0,0,0,0,0,0,0,0,0,0,0,0,0,
0,0,0,0,0,0,0,0,0,0,0,0,0,0,0,0,
0,0,0,0,0,0,0,0,0,0,0,0,0,0,0,0,
0,0,0,0,0,0,0,0,0,0,0,0,0,0,0,0,
0,0,0,0,0,0,0,0,0,0,0,0,0,0,0,0,
0,0,0,0,0,0,0,0,0,0,0,0,0,0,0,0,
0,0,0,0,0,0,0,0,0,0,0,0,0,0,0,0,
0,0,0,0,0,0,0,0,0,0,0,0,0,0,0,0,
0,0,0,0,0,0,0,0,0,0,0,0,0,0,0,0,
0,0,0,0,0,0,0,0,0,0,0,0,0,0,0,0,
0,0,0,0,0,0,0,0,0,0,0,0,0,0,0,0,
0,0,0,0,0,0,0,0,0,0,0,0,0,0,0,0,
0,0,0,0,0,0,0,0,0,0,0,0,0,0,0,0,
0,0,0,0,0,0,0,0,0,0,0,0,0,0,0,0,
0,0,0,0,0,0,0,0,0,0,0,0,0,0,0,0
</chunk>
  </data>
 </layer>
</map>
