<?xml version="1.0" encoding="UTF-8"?>
<map version="1.10" tiledversion="1.11.2" orientation="orthogonal" renderorder="right-down" width="30" height="20" tilewidth="16" tileheight="16" infinite="1" nextlayerid="6" nextobjectid="1">
 <tileset firstgid="1" source="Floortiles.tsx"/>
 <tileset firstgid="25" source="Walls.tsx"/>
 <tileset firstgid="586" source="Furnitures.tsx"/>
 <tileset firstgid="1426" source="../../../../../BookShelves and Tables.tsx"/>
 <tileset firstgid="2266" source="Mockup.tsx"/>
 <tileset firstgid="4508" source="../../../../../OneDrive - St Ambrose College/Walls&amp;Floors.tsx"/>
 <layer id="5" name="fill in the gaps" width="30" height="20">
  <data encoding="csv">
   <chunk x="-32" y="-48" width="16" height="16">
0,0,0,0,0,0,0,0,0,0,0,0,0,0,0,0,
0,0,0,0,0,0,0,0,0,0,0,0,0,0,0,0,
0,0,0,0,0,0,0,0,0,0,0,0,0,0,0,0,
0,0,0,0,0,0,0,0,0,0,0,0,0,0,0,0,
0,0,0,0,0,0,0,0,0,0,0,0,0,0,0,0,
0,0,0,0,0,0,0,0,0,0,0,0,0,0,0,1,
0,0,0,0,0,0,0,0,0,0,0,0,0,0,0,0,
0,0,0,0,0,0,0,0,0,0,0,0,0,0,0,0,
0,0,0,0,0,0,0,0,0,0,0,0,0,0,0,0,
0,0,0,0,0,0,0,0,0,0,0,0,0,0,0,0,
0,0,0,0,0,0,0,0,0,0,0,0,0,0,0,0,
0,0,0,0,0,0,0,0,0,0,0,0,0,0,0,0,
0,0,0,0,0,0,0,0,0,0,0,0,0,0,0,0,
0,0,0,0,0,0,0,0,0,0,0,0,0,0,0,0,
0,0,0,0,0,0,0,0,0,0,0,0,0,0,0,0,
0,0,0,0,0,0,0,0,0,0,0,0,0,0,0,0
</chunk>
   <chunk x="-16" y="-48" width="16" height="16">
0,0,0,0,0,0,0,0,0,0,0,0,0,0,0,0,
0,0,0,0,0,0,0,0,0,0,0,0,0,0,0,0,
0,0,0,0,0,0,0,0,0,0,0,0,0,0,0,0,
0,0,0,0,0,0,0,0,0,0,0,0,0,0,0,0,
0,0,0,0,0,0,0,0,0,0,0,0,0,0,0,0,
0,0,0,0,0,0,0,0,1,0,0,0,0,0,0,0,
0,0,0,0,0,0,0,0,0,0,0,0,0,0,0,0,
0,0,0,0,0,0,0,0,0,0,0,0,0,0,0,0,
0,0,0,0,0,0,0,0,0,0,0,0,0,0,0,0,
0,0,0,0,0,0,0,0,0,0,0,0,0,0,0,0,
0,0,0,0,0,0,0,0,0,0,0,0,0,0,0,0,
0,0,0,0,0,0,0,0,0,0,0,0,0,0,0,0,
0,0,0,0,0,0,0,0,0,0,0,0,0,0,0,0,
0,0,0,0,0,0,0,0,0,0,0,0,0,0,0,0,
0,0,0,0,0,0,0,0,0,0,0,0,0,0,0,0,
0,0,0,0,0,0,0,0,0,0,0,0,0,0,0,0
</chunk>
   <chunk x="0" y="-48" width="16" height="16">
0,0,0,0,0,0,0,0,0,0,0,0,0,0,0,0,
0,0,0,0,0,0,0,0,0,0,0,0,0,0,0,0,
0,0,0,0,0,0,0,0,0,0,0,0,0,0,0,0,
0,0,0,0,0,0,0,0,0,0,0,0,0,0,0,0,
0,0,0,0,0,0,0,0,0,0,0,0,0,0,0,0,
0,0,0,0,0,0,0,0,0,0,0,0,0,0,0,0,
0,0,0,0,0,0,0,0,0,0,0,0,0,0,0,0,
0,0,0,0,0,0,0,0,0,0,0,0,0,0,0,0,
0,0,0,0,0,0,0,0,0,0,0,0,0,0,0,0,
0,0,0,0,0,0,0,0,0,0,0,0,0,0,0,0,
0,0,0,0,0,0,0,0,0,0,0,0,0,0,0,0,
0,0,0,0,0,0,0,0,0,0,0,0,0,0,0,0,
0,0,0,0,0,0,0,0,0,0,0,0,0,0,0,0,
0,0,0,0,0,0,1,0,0,0,0,0,0,0,0,0,
0,0,0,0,0,0,0,0,0,0,0,0,0,0,0,0,
0,0,0,0,0,0,0,0,0,0,0,0,0,0,0,0
</chunk>
   <chunk x="-16" y="-32" width="16" height="16">
0,0,0,0,0,0,0,0,0,0,0,0,0,0,0,0,
0,0,0,0,0,0,0,0,0,0,0,0,0,0,0,0,
0,0,0,0,0,0,0,0,0,0,0,0,0,0,0,0,
0,0,0,0,0,0,0,0,0,0,0,0,0,0,0,0,
0,0,0,0,0,0,0,0,0,0,0,0,0,0,0,0,
0,0,0,0,0,0,0,0,0,0,0,0,0,0,0,0,
0,0,0,166,0,0,0,0,0,0,0,0,0,0,0,0,
0,0,0,0,0,0,0,0,0,0,0,0,0,0,0,0,
0,0,0,0,0,0,0,0,0,0,0,0,0,0,0,0,
0,0,0,0,0,0,0,0,0,0,0,0,0,0,0,0,
0,0,0,0,0,0,0,0,0,0,0,0,0,0,0,0,
0,0,0,0,0,0,0,0,0,0,0,0,0,0,0,0,
0,0,0,0,0,0,0,0,0,0,0,0,0,0,0,0,
0,0,0,0,0,0,0,0,0,0,0,0,0,0,0,0,
0,0,0,0,0,0,0,0,0,0,0,0,0,0,0,0,
0,0,0,0,0,0,0,0,0,0,0,0,0,0,0,0
</chunk>
  </data>
 </layer>
 <layer id="1" name="Floor" width="30" height="20">
  <data encoding="csv">
   <chunk x="0" y="-64" width="16" height="16">
0,0,0,0,0,0,0,0,0,0,0,0,0,0,0,0,
0,0,0,0,0,0,0,0,0,0,0,0,0,0,0,0,
0,0,0,0,0,0,0,0,0,0,0,0,0,0,0,0,
0,0,0,0,0,0,0,0,0,0,0,0,0,0,0,0,
0,0,0,0,0,0,0,0,0,0,0,0,0,0,0,0,
0,0,0,0,0,0,0,0,0,0,0,0,0,0,0,0,
0,0,0,0,0,0,0,0,0,0,0,0,0,0,0,0,
0,0,0,0,0,0,0,0,0,0,0,0,0,0,0,0,
0,0,0,0,0,0,0,0,0,0,0,0,0,0,0,0,
0,0,0,0,0,0,0,0,0,0,0,0,0,0,0,0,
0,0,0,0,0,0,0,0,0,0,0,0,0,0,0,0,
0,0,0,0,0,0,0,0,0,0,0,0,0,0,0,0,
0,0,0,0,0,0,0,0,0,0,0,0,0,0,0,0,
0,0,0,0,0,0,0,0,0,0,0,0,0,0,0,0,
0,0,0,0,0,0,0,0,0,0,0,0,0,0,0,0,
0,0,0,0,0,0,0,0,426,427,428,429,430,431,432,426
</chunk>
   <chunk x="16" y="-64" width="16" height="16">
0,0,0,0,0,0,0,0,0,0,0,0,0,0,0,0,
0,0,0,0,0,0,0,0,0,0,0,0,0,0,0,0,
0,0,0,0,0,0,0,0,0,0,0,0,0,0,0,0,
0,0,0,0,0,0,0,0,0,0,0,0,0,426,426,427,
0,0,0,0,0,0,0,0,0,0,0,0,0,459,426,427,
0,0,0,0,0,0,0,0,0,0,0,0,426,492,426,427,
0,0,0,0,0,0,0,0,0,0,0,426,459,525,459,460,
0,0,0,0,0,0,0,0,0,0,0,459,492,558,492,493,
0,0,0,0,0,0,0,0,0,0,426,492,525,558,525,526,
0,0,0,0,0,0,0,0,0,426,459,525,558,558,558,559,
0,0,0,0,0,0,0,0,426,459,492,558,558,559,560,561,
0,0,0,0,0,0,0,0,459,492,525,558,559,560,561,562,
0,0,0,0,0,426,426,426,492,525,558,559,560,561,562,563,
0,0,0,0,426,459,459,459,525,558,559,560,561,562,563,564,
0,426,426,426,459,492,492,492,558,558,559,560,561,562,563,564,
426,459,459,459,492,525,525,525,558,559,560,561,562,563,564,431
</chunk>
   <chunk x="32" y="-64" width="16" height="16">
0,0,0,0,0,0,0,0,0,0,0,0,0,0,0,0,
0,0,0,0,0,0,0,0,0,0,0,0,0,0,0,0,
0,0,0,0,0,0,0,0,0,0,0,0,0,0,0,0,
428,429,430,431,432,0,0,0,0,0,0,0,0,0,0,0,
428,429,430,431,432,0,0,0,0,0,0,0,0,0,0,0,
428,429,430,431,432,0,0,0,0,0,0,0,0,0,0,0,
461,462,463,464,465,0,0,0,0,0,0,0,0,0,0,0,
494,495,496,497,498,0,0,0,0,0,0,0,0,0,0,0,
527,528,529,530,531,0,0,0,0,0,0,0,0,0,0,0,
560,561,562,563,564,0,0,0,0,0,0,0,0,0,0,0,
562,563,564,0,0,0,0,0,0,0,0,0,0,0,0,0,
563,564,0,0,0,0,0,426,427,428,429,430,431,432,0,0,
564,0,0,0,0,0,0,426,427,428,429,430,431,432,0,0,
428,429,430,431,432,432,432,432,432,428,429,430,431,432,427,428,
430,431,432,432,465,465,465,465,465,428,429,430,431,432,427,428,
432,432,465,465,498,498,498,498,498,429,430,431,432,465,427,428
</chunk>
   <chunk x="48" y="-64" width="16" height="16">
0,0,0,0,0,0,0,0,0,0,0,0,0,0,0,0,
0,0,0,0,0,0,0,0,0,0,0,0,0,0,0,0,
0,0,0,0,0,0,0,0,0,0,0,0,0,0,0,0,
0,0,0,0,0,0,0,0,0,0,0,0,0,0,0,0,
0,0,0,0,0,0,0,0,0,0,0,0,0,0,0,0,
0,0,0,0,0,0,0,0,0,0,0,0,0,0,0,0,
0,0,0,0,0,0,0,0,0,0,0,0,0,0,0,0,
0,0,0,0,0,0,0,0,0,0,0,0,0,0,0,0,
0,0,0,0,0,0,0,0,0,0,0,0,0,0,0,0,
0,0,0,0,0,0,0,0,0,0,0,0,0,0,0,0,
0,0,0,0,0,0,0,0,0,0,0,0,0,0,0,0,
0,0,0,0,0,0,0,0,0,0,0,0,0,0,0,0,
0,0,0,0,0,0,0,0,0,0,0,0,0,0,0,0,
429,430,431,432,0,0,0,0,0,0,0,0,0,0,0,0,
429,430,431,432,0,0,0,0,0,0,0,0,0,0,0,0,
429,430,431,432,0,0,0,0,0,0,0,0,0,0,0,0
</chunk>
   <chunk x="-32" y="-48" width="16" height="16">
0,7,3,9,2,1,9,2,2,9,7,7,9,8,1,0,
0,2,7,7,8,1,2,2,8,9,8,2,8,3,2,0,
0,3,9,3,9,9,9,1,1,1,8,9,9,3,8,65,
0,1,7,8,7,8,7,2,3,1,2,9,8,8,1,99,
0,1,2,7,2,3,7,9,9,9,7,9,8,7,8,132,
0,3,1,1,8,8,3,8,3,2,1,3,8,3,8,164,
0,8,3,9,1,8,7,7,7,8,9,1,8,3,7,8,
0,3,7,1,2,1,1,7,7,9,7,7,1,8,3,9,
0,1,3,1,2,7,2,1,7,1,3,2,8,1,1,9,
0,2,1,8,1,9,2,8,1,8,9,7,8,8,3,3,
0,8,1,9,9,3,1,8,2,2,1,1,1,2,9,9,
0,8,1,8,9,3,7,7,1,3,1,7,2,1,2,8,
0,8,9,7,1,1,2,3,2,7,8,2,7,7,9,8,
0,3,7,2,1,1,3,8,7,3,9,9,9,1,7,8,
0,7,8,1,9,8,1,2,2,3,8,2,7,8,7,9,
0,9,8,7,1,9,7,3,1,1,7,2,3,2,7,9
</chunk>
   <chunk x="-16" y="-48" width="16" height="16">
0,0,0,0,0,0,0,0,0,8,7,1,2,8,3,9,
0,0,0,0,0,0,0,0,0,9,2,8,1,9,7,8,
0,2,8,2,8,7,3,8,65,7,1,3,7,1,3,8,
8,8,8,9,7,1,1,99,99,1,9,2,3,1,9,1,
3,7,3,7,1,7,7,0,327,9,2,9,2,2,9,8,
3,8,9,1,7,9,1,3,164,3,8,1,7,3,3,9,
7,3,3,1,3,8,9,7,2,8,7,8,2,1,8,9,
8,8,3,2,2,3,2,1,9,9,8,2,8,1,3,7,
1,3,7,9,3,3,3,9,1,7,7,8,9,2,1,7,
3,9,8,8,8,9,7,9,2,8,7,8,3,8,3,7,
1,7,1,7,1,1,2,9,3,7,9,2,8,1,8,2,
1,2,8,3,3,9,8,8,2,1,7,7,3,3,9,9,
3,9,8,7,7,1,1,8,3,8,3,8,1,2,3,7,
8,9,9,8,1,9,9,8,8,1,8,9,9,1,9,7,
1,7,2,9,1,3,3,1,1,1,2,8,1,1,2,1,
7,8,9,8,9,2,3,1,7,7,2,2,1,3,9,1
</chunk>
   <chunk x="0" y="-48" width="16" height="16">
8,8,7,1,9,3,2,0,426,427,428,429,430,431,432,459,
1,9,1,3,3,1,3,0,426,426,427,428,429,430,431,492,
8,2,3,1,1,2,2,0,459,426,427,428,429,430,431,525,
7,2,3,8,1,2,8,0,492,426,427,428,429,430,431,558,
2,1,1,7,2,2,1,0,525,426,427,428,429,430,431,558,
3,8,9,3,7,7,1,0,426,427,428,429,430,431,432,492,
7,8,1,1,9,8,2,0,426,427,428,429,430,431,432,525,
8,9,8,1,7,3,1,0,426,427,428,429,430,431,426,558,
3,7,8,1,9,8,8,0,426,426,427,428,429,430,459,492,
3,3,9,8,1,9,3,0,459,426,427,428,429,430,492,525,
3,1,8,1,7,2,3,0,492,426,426,427,428,429,525,558,
3,3,9,1,7,3,7,0,525,459,426,427,428,429,558,426,
2,3,1,3,3,7,7,0,426,427,428,429,430,431,558,459,
8,1,8,9,9,1,196,0,459,460,461,462,463,464,465,492,
8,2,3,1,8,9,0,1047,492,493,494,495,496,497,426,525,
2,1,7,7,3,2,0,1087,525,526,527,528,529,530,459,558
</chunk>
   <chunk x="16" y="-48" width="16" height="16">
459,492,492,492,525,558,558,558,559,560,561,562,563,564,430,431,
492,525,525,525,558,559,560,561,562,563,564,460,461,462,463,464,
525,558,558,558,559,560,561,562,563,564,492,493,494,495,496,497,
558,558,559,560,561,562,563,564,531,564,525,526,527,528,529,530,
559,560,561,562,563,564,564,564,564,430,558,559,560,561,562,563,
492,492,492,492,492,426,426,427,428,429,430,431,426,426,459,492,
525,525,525,525,525,459,426,427,428,429,426,426,459,459,492,525,
558,558,558,426,427,428,426,426,426,426,459,459,492,492,525,558,
558,426,426,426,427,426,459,459,459,459,492,492,525,525,558,558,
558,459,426,426,426,459,492,492,492,492,525,525,558,558,559,560,
426,426,459,459,459,492,525,525,525,525,558,558,559,560,561,562,
459,459,492,492,492,525,558,558,558,558,559,560,561,562,563,564,
492,492,525,525,525,558,559,560,561,562,563,564,428,429,430,431,
525,525,558,558,558,559,560,561,562,563,564,428,429,430,431,432,
558,558,558,559,560,561,562,563,564,564,428,429,430,431,432,432,
558,559,560,561,562,563,564,432,498,427,428,429,430,431,432,465
</chunk>
   <chunk x="32" y="-48" width="16" height="16">
432,465,498,498,531,531,531,531,531,429,430,431,432,498,427,428,
465,498,531,531,564,564,564,564,564,430,431,432,465,531,427,428,
498,531,564,564,560,561,562,563,564,431,432,465,498,564,427,428,
531,564,558,559,560,561,562,563,564,431,432,498,531,430,431,432,
564,525,558,559,560,561,562,563,564,432,465,531,564,431,432,465,
525,558,559,560,561,562,563,564,431,432,498,564,564,431,432,498,
558,558,559,560,561,562,563,564,431,432,531,564,430,431,432,531,
558,559,560,561,562,563,564,431,432,465,564,564,430,431,432,564,
559,560,561,562,563,564,430,431,432,498,563,564,431,432,465,564,
561,562,563,564,531,429,430,431,432,531,564,430,431,432,498,429,
563,564,465,531,564,430,431,432,465,564,564,430,431,432,531,429,
432,465,498,564,531,430,431,432,498,563,564,430,431,432,564,429,
432,498,531,432,564,431,432,465,531,563,564,430,431,432,564,429,
465,531,564,432,430,431,432,498,564,563,564,431,432,465,429,430,
498,564,432,465,430,431,432,531,563,564,430,431,432,498,429,430,
531,431,432,498,431,432,465,564,563,564,430,431,432,531,429,430
</chunk>
   <chunk x="48" y="-48" width="16" height="16">
429,430,431,432,0,0,0,0,0,0,0,0,0,0,0,0,
429,430,431,432,0,0,0,0,0,0,0,0,0,0,0,0,
429,430,431,432,0,0,0,0,0,0,0,0,0,0,0,0,
429,430,431,432,0,0,0,0,0,0,0,0,0,0,0,0,
429,430,431,432,0,0,0,0,0,0,0,0,0,0,0,0,
429,430,431,432,0,0,0,0,0,0,0,0,0,0,0,0,
429,430,431,432,0,0,0,0,0,0,0,0,0,0,0,0,
429,430,431,432,0,0,0,0,0,0,0,0,0,0,0,0,
429,430,431,432,0,0,0,0,0,0,0,0,0,0,0,0,
430,431,432,465,0,0,0,0,0,0,0,0,0,0,0,0,
430,431,432,498,0,0,0,0,0,0,0,0,0,0,0,0,
430,431,432,531,0,0,0,0,0,0,0,0,0,0,0,0,
430,431,432,564,0,0,0,0,0,0,0,0,0,0,0,0,
431,432,465,0,0,0,0,0,0,0,0,0,0,0,0,0,
431,432,498,0,0,0,0,0,0,0,0,0,0,0,0,0,
431,432,531,0,0,0,0,0,0,0,0,0,0,0,0,0
</chunk>
   <chunk x="-32" y="-32" width="16" height="16">
0,7,3,2,8,2,8,7,7,1,8,3,8,1,1,1,
0,3,8,7,3,8,9,8,2,3,2,7,7,1,1,3,
0,9,3,7,1,8,2,1,7,7,1,2,8,8,3,7,
0,8,9,7,9,9,1,7,2,8,1,2,1,3,7,9,
0,9,2,9,3,2,1,7,1,7,7,3,8,9,1,9,
0,7,9,9,3,3,7,8,1,9,3,8,8,3,8,3,
0,7,3,3,9,9,8,2,7,1,7,3,7,8,9,1,
0,9,9,2,2,3,1,9,9,3,3,8,3,2,1,9,
0,7,2,8,1,2,2,3,9,3,3,2,1,9,2,1,
0,8,7,7,9,2,2,2,7,2,7,1,2,8,9,7,
0,1048,1048,1048,1048,1048,1048,1048,1048,1049,1050,1047,1047,1047,1047,1047,
0,1088,1088,1088,1088,1088,1088,1088,1088,1089,1090,1087,1087,1087,1087,1087,
0,1128,1128,1128,1128,1128,1128,1128,1128,1129,1130,1127,1127,1127,1127,1127,
0,1049,1050,1051,1052,1052,1052,1052,1052,1052,1052,1052,1052,1052,1052,1052,
0,1089,1090,1091,1092,1092,1092,1092,1092,1092,1092,1092,1092,1092,1092,1092,
0,1129,1130,1131,1132,1132,1132,1132,1132,1132,1132,1132,1132,1132,1132,1132
</chunk>
   <chunk x="-16" y="-32" width="16" height="16">
3,1,3,9,8,9,8,1,3,3,3,3,7,9,2,7,
7,8,1,2,2,3,2,7,3,1,1,2,9,3,7,1,
7,9,7,2,9,7,1,9,7,7,8,8,7,3,1,8,
7,1,8,7,1,8,9,9,8,8,1,8,3,8,3,2,
1,2,3,3,9,2,2,3,2,9,9,7,8,1,2,9,
2,2,2,1,8,3,8,7,8,2,7,2,8,3,2,1,
8,9,3,2,1,9,2,2,1,2,9,3,1,9,1,2,
9,7,3,0,1047,1047,1047,1047,1047,1047,1047,1047,1047,1047,1047,1047,
8,2,1,0,1087,1087,1087,1087,1087,1087,1087,1087,1087,1087,1087,1087,
1,3,8,0,1127,1127,1127,1127,1127,1127,1127,1127,1127,1127,1127,1127,
1047,1047,1047,0,1167,1167,1167,1167,1167,1167,1167,1167,1167,1167,1167,1167,
1087,1087,1087,1087,1087,1087,1087,1087,1087,1087,1087,1087,1087,1087,1087,1087,
1127,1127,1127,1127,1127,1127,1127,1127,1127,1127,1127,1127,1047,1048,1049,1050,
1052,1052,1052,1052,1052,1052,1052,1052,1052,1052,1052,1052,1052,1052,1052,1052,
1092,1092,1092,1092,1092,1092,1092,1092,1092,1092,1092,1092,1092,1092,1092,1092,
1132,1132,1132,1132,1132,1132,1132,1132,1132,1132,1132,1132,1132,1132,1132,1132
</chunk>
   <chunk x="0" y="-32" width="16" height="16">
9,8,8,8,2,7,0,1127,558,559,560,561,562,426,492,558,
2,3,9,9,7,9,0,1167,1168,1169,1170,1171,1172,459,525,558,
2,9,3,9,7,9,0,1167,1168,1169,1170,1171,1172,492,558,558,
8,7,2,9,9,7,0,1167,1168,1169,1170,426,427,525,558,559,
2,1,3,3,2,3,0,1167,1168,1169,1170,426,426,558,558,559,
2,3,1,1,1,3,0,1167,1168,1169,1170,426,459,558,559,560,
8,1,7,3,3,7,0,1167,1168,1169,426,427,492,558,559,560,
1047,1047,1047,1047,1047,1048,1049,1167,1168,1169,426,426,525,558,559,560,
1087,1087,1087,1087,1047,1047,1047,1167,1168,1169,426,459,558,558,559,560,
1127,1127,1127,1127,1087,1087,1047,1047,1048,1049,426,492,558,559,560,561,
1167,1167,1167,1167,1127,1127,1087,1047,1048,1049,459,525,558,559,560,561,
1087,1087,1087,1087,1167,1167,1127,1047,1047,1048,492,558,559,560,561,562,
1051,1052,1052,1052,1052,1052,1167,1087,1047,1047,525,558,559,560,561,562,
1052,1092,1092,1092,1092,1092,1092,1127,1087,1047,558,559,560,561,562,563,
1092,1132,1132,1132,1132,1132,1132,1167,1127,1047,558,559,560,561,562,563,
1132,1172,1172,1172,1172,1172,1172,1172,1167,1087,558,559,560,561,562,563
</chunk>
   <chunk x="16" y="-32" width="16" height="16">
559,560,561,562,563,564,432,465,531,428,429,430,431,432,465,498,
559,560,561,562,563,564,465,498,564,429,430,431,432,465,498,531,
559,560,561,562,563,564,498,531,429,430,431,432,432,498,531,564,
560,561,562,563,564,498,531,564,429,430,431,432,465,531,564,564,
560,561,562,563,564,531,564,429,430,431,432,465,498,564,563,564,
561,562,563,564,531,564,428,429,430,431,432,498,531,562,563,564,
561,562,563,564,564,428,429,430,431,432,465,531,564,562,563,564,
561,562,563,564,564,428,429,430,431,432,498,564,561,562,563,564,
561,562,563,564,564,428,429,430,431,432,531,560,561,562,563,564,
562,563,564,563,564,429,430,431,432,432,564,560,561,562,563,564,
562,563,564,563,564,429,430,431,432,465,559,560,561,562,563,564,
563,564,562,563,564,429,430,431,432,498,559,560,561,562,563,564,
563,564,562,563,564,429,430,431,432,531,559,560,561,562,563,564,
564,561,562,563,564,432,430,431,432,564,559,560,561,562,563,564,
564,561,562,563,564,465,430,431,432,558,559,560,561,562,563,564,
564,561,562,563,564,498,431,432,432,558,559,560,561,562,563,564
</chunk>
   <chunk x="32" y="-32" width="16" height="16">
564,431,432,531,431,432,498,562,563,564,430,431,432,564,429,430,
431,432,465,564,431,432,531,563,564,429,430,431,432,564,429,430,
431,432,498,564,431,432,564,563,564,429,430,431,432,564,429,430,
431,432,531,564,432,465,563,564,564,429,430,431,432,429,430,431,
431,432,564,564,432,498,563,564,564,430,431,432,465,429,430,431,
432,465,563,564,432,531,563,564,564,430,431,432,498,429,430,431,
432,498,563,564,432,564,564,563,564,430,431,432,531,429,430,431,
432,531,563,564,465,563,564,563,564,430,431,432,564,429,430,431,
432,564,563,564,498,563,564,563,564,430,431,432,564,430,431,432,
432,562,563,564,531,563,564,563,564,430,431,432,564,430,431,432,
432,562,563,564,564,563,564,563,564,430,431,432,564,431,432,465,
432,562,563,564,562,563,564,563,564,431,432,465,564,431,432,498,
465,562,563,564,562,563,564,563,564,431,432,498,564,431,432,531,
498,559,560,561,562,563,564,563,564,431,432,531,564,432,465,564,
531,560,561,562,563,564,562,563,564,431,432,564,564,432,498,498,
564,560,561,562,563,564,562,563,564,431,432,563,564,465,531,531
</chunk>
   <chunk x="48" y="-32" width="16" height="16">
431,432,564,0,0,0,0,0,0,0,0,0,0,0,0,0,
431,432,0,0,0,0,0,0,0,0,0,0,0,0,0,0,
431,432,0,0,0,0,0,0,0,0,0,0,0,0,0,0,
432,465,0,0,0,0,0,0,0,0,0,0,0,0,0,0,
432,498,0,0,0,0,0,0,0,0,0,0,0,0,0,0,
432,531,0,0,0,0,0,0,0,0,0,0,0,0,0,0,
432,564,0,0,0,0,0,0,0,0,0,0,0,0,0,0,
432,0,0,0,0,0,0,0,0,0,0,0,0,0,0,0,
465,0,0,0,0,0,0,0,0,0,0,0,0,0,0,0,
498,0,0,0,0,0,0,0,0,0,0,0,0,0,0,0,
531,0,0,0,0,0,0,0,0,0,0,0,0,0,0,0,
564,0,0,0,0,0,0,0,0,0,0,0,0,0,0,0,
432,432,0,0,0,0,0,0,0,0,0,0,0,0,0,0,
465,465,0,0,0,0,0,0,0,0,0,0,0,0,0,0,
498,498,432,0,0,0,0,0,0,0,0,0,0,0,0,0,
531,531,465,0,0,0,0,0,0,0,0,0,0,0,0,0
</chunk>
   <chunk x="0" y="-16" width="16" height="16">
0,0,0,0,0,0,0,0,0,1127,1127,1128,1129,1130,558,559,
0,0,0,0,0,0,0,0,0,1167,1167,1168,1169,1170,1171,558,
0,0,0,0,0,0,0,0,0,0,0,0,0,0,0,558,
0,0,0,0,0,0,0,0,0,0,0,0,0,0,0,558,
0,0,0,0,0,0,0,0,0,0,0,0,0,0,0,558,
0,0,0,0,0,0,0,0,0,0,0,0,0,0,0,0,
0,0,0,0,0,0,0,0,0,0,0,0,0,0,0,0,
0,0,0,0,0,0,0,0,0,0,0,0,0,0,0,0,
0,0,0,0,0,0,0,0,0,0,0,0,0,0,0,0,
0,0,0,0,0,0,0,0,0,0,0,0,0,0,0,0,
0,0,0,0,0,0,0,0,0,0,0,0,0,0,0,0,
0,0,0,0,0,0,0,0,0,0,0,0,0,0,0,0,
0,0,0,0,0,0,0,0,0,0,0,0,0,0,0,0,
0,0,0,0,0,0,0,0,0,0,0,0,0,0,0,0,
0,0,0,0,0,0,0,0,0,0,0,0,0,0,0,0,
0,0,0,0,0,0,0,0,0,0,0,0,0,0,0,0
</chunk>
   <chunk x="16" y="-16" width="16" height="16">
560,561,562,563,564,531,432,432,465,558,559,560,561,562,563,564,
559,560,561,562,563,564,465,432,498,558,559,560,561,562,563,564,
559,560,561,562,563,564,498,432,531,0,0,0,0,0,0,0,
559,560,561,562,563,564,531,465,564,0,0,0,0,0,0,0,
559,560,561,562,563,564,564,498,0,0,0,0,0,0,0,0,
558,559,560,561,562,563,564,531,0,0,0,0,0,0,0,0,
558,559,560,561,562,563,564,564,0,0,0,0,0,0,0,0,
558,559,560,561,562,563,564,0,0,0,0,0,0,0,0,0,
0,0,0,0,0,0,0,0,0,0,0,0,0,0,0,0,
0,0,0,0,0,0,0,0,0,0,0,0,0,0,0,0,
0,0,0,0,0,0,0,0,0,0,0,0,0,0,0,0,
0,0,0,0,0,0,0,0,0,0,0,0,0,0,0,0,
0,0,0,0,0,0,0,0,0,0,0,0,0,0,0,0,
0,0,0,0,0,0,0,0,0,0,0,0,0,0,0,0,
0,0,0,0,0,0,0,0,0,0,0,0,0,0,0,0,
0,0,0,0,0,0,0,0,0,0,0,0,0,0,0,0
</chunk>
   <chunk x="32" y="-16" width="16" height="16">
0,0,558,559,560,561,562,563,564,431,432,563,564,498,564,564,
0,0,558,559,560,561,562,563,564,431,432,563,564,531,561,562,
0,0,558,559,560,561,562,563,564,432,465,563,564,564,560,561,
0,0,558,559,560,561,562,563,564,432,498,563,564,0,0,0,
0,0,558,559,560,561,562,563,564,432,531,0,0,0,0,0,
0,0,558,559,560,561,562,563,564,465,564,0,0,0,0,0,
0,0,558,559,560,561,562,563,564,498,0,0,0,0,0,0,
0,0,558,559,560,561,562,563,564,531,0,0,0,0,0,0,
0,0,558,559,560,561,562,563,564,564,0,0,0,0,0,0,
0,0,0,0,0,0,0,0,0,0,0,0,0,0,0,0,
0,0,0,0,0,0,0,0,0,0,0,0,0,0,0,0,
0,0,0,0,0,0,0,0,0,0,0,0,0,0,0,0,
0,0,0,0,0,0,0,0,0,0,0,0,0,0,0,0,
0,0,0,0,0,0,0,0,0,0,0,0,0,0,0,0,
0,0,0,0,0,0,0,0,0,0,0,0,0,0,0,0,
0,0,0,0,0,0,0,0,0,0,0,0,0,0,0,0
</chunk>
   <chunk x="48" y="-16" width="16" height="16">
564,564,498,0,0,0,0,0,0,0,0,0,0,0,0,0,
563,564,531,0,0,0,0,0,0,0,0,0,0,0,0,0,
562,563,564,0,0,0,0,0,0,0,0,0,0,0,0,0,
0,0,0,0,0,0,0,0,0,0,0,0,0,0,0,0,
0,0,0,0,0,0,0,0,0,0,0,0,0,0,0,0,
0,0,0,0,0,0,0,0,0,0,0,0,0,0,0,0,
0,0,0,0,0,0,0,0,0,0,0,0,0,0,0,0,
0,0,0,0,0,0,0,0,0,0,0,0,0,0,0,0,
0,0,0,0,0,0,0,0,0,0,0,0,0,0,0,0,
0,0,0,0,0,0,0,0,0,0,0,0,0,0,0,0,
0,0,0,0,0,0,0,0,0,0,0,0,0,0,0,0,
0,0,0,0,0,0,0,0,0,0,0,0,0,0,0,0,
0,0,0,0,0,0,0,0,0,0,0,0,0,0,0,0,
0,0,0,0,0,0,0,0,0,0,0,0,0,0,0,0,
0,0,0,0,0,0,0,0,0,0,0,0,0,0,0,0,
0,0,0,0,0,0,0,0,0,0,0,0,0,0,0,0
</chunk>
  </data>
 </layer>
 <layer id="2" name="Walls" width="30" height="20">
  <data encoding="csv">
   <chunk x="-32" y="-64" width="16" height="16">
0,0,0,0,0,0,0,0,0,0,0,0,0,0,0,0,
0,0,0,0,0,0,0,0,0,0,0,0,0,0,0,0,
0,0,0,0,0,0,0,0,0,0,0,0,0,0,0,0,
0,0,0,0,0,0,0,0,0,0,0,0,0,0,0,0,
0,0,0,0,0,0,0,0,0,0,0,0,0,0,0,0,
0,0,0,0,0,0,0,0,0,0,0,0,0,0,0,0,
0,0,0,0,0,0,0,0,0,0,0,0,0,0,0,0,
0,0,0,0,0,0,0,0,0,0,0,0,0,0,0,0,
0,0,0,0,0,0,0,0,0,0,0,0,0,0,0,0,
0,0,0,0,0,0,0,0,0,0,0,0,0,0,0,0,
0,0,0,0,0,0,0,0,0,0,0,0,0,0,0,0,
0,0,0,0,0,0,0,0,0,0,0,0,0,0,0,0,
0,0,0,0,0,0,0,0,0,0,0,0,0,0,0,0,
0,0,0,0,0,0,0,0,0,0,0,0,0,193,0,0,
0,0,0,0,0,0,0,0,0,0,0,0,0,0,0,0,
0,0,0,0,0,0,0,0,0,0,0,0,0,0,0,0
</chunk>
   <chunk x="-16" y="-64" width="16" height="16">
0,0,0,0,0,0,0,0,0,0,0,0,0,0,0,0,
0,0,0,0,0,0,0,0,0,0,0,0,0,0,0,0,
0,0,0,0,0,0,0,0,0,0,0,0,0,0,0,0,
0,0,0,0,0,0,0,0,0,0,0,0,0,0,0,0,
0,0,0,0,0,0,0,0,0,0,0,0,0,0,0,0,
0,0,0,0,0,0,0,0,0,0,0,0,0,0,0,0,
0,0,0,0,0,0,0,0,0,0,0,0,0,0,0,0,
0,0,0,0,0,0,0,0,0,0,0,0,0,0,0,0,
0,0,0,0,0,0,0,0,0,0,0,0,0,0,0,0,
0,0,0,0,0,0,0,0,0,0,0,0,0,0,0,0,
0,0,0,0,0,0,0,0,0,0,0,0,0,0,0,0,
0,0,0,0,0,0,0,0,0,0,0,0,0,0,0,0,
0,0,0,0,0,0,0,0,0,0,0,0,0,0,0,0,
193,0,0,0,0,0,0,0,0,0,0,0,0,0,0,0,
0,0,0,0,0,0,0,0,0,0,0,0,0,0,0,0,
0,0,0,0,0,0,0,0,0,0,0,0,0,0,0,0
</chunk>
   <chunk x="0" y="-64" width="16" height="16">
0,0,0,0,0,0,0,0,0,0,0,0,0,0,0,0,
0,0,0,0,0,0,0,0,0,0,0,0,0,0,0,0,
0,0,0,0,0,0,0,0,0,0,0,0,0,0,0,0,
0,0,0,0,0,0,0,0,0,0,0,0,0,0,0,0,
0,0,0,0,0,0,0,0,0,0,0,0,0,0,0,0,
0,0,0,0,0,0,0,0,0,0,0,0,0,0,0,0,
0,0,0,0,0,0,0,0,0,0,0,0,0,0,0,0,
0,0,0,0,0,0,0,0,0,0,0,0,0,0,0,0,
0,0,0,0,0,0,0,0,0,0,0,0,0,0,0,0,
0,0,0,0,0,0,0,0,0,0,0,0,0,0,0,0,
0,0,0,0,0,0,0,0,0,0,0,0,0,0,0,0,
0,0,0,0,0,0,0,0,0,0,0,0,0,0,0,0,
0,0,0,0,0,0,0,0,0,0,0,0,0,0,0,0,
0,0,0,0,0,0,0,0,0,0,0,0,0,0,0,0,
0,0,0,0,0,0,0,0,0,0,0,0,0,0,0,0,
0,0,0,0,0,0,0,0,426,426,426,426,426,426,426,426
</chunk>
   <chunk x="16" y="-64" width="16" height="16">
0,0,0,0,0,0,0,0,0,0,0,0,0,0,0,0,
0,0,0,0,0,0,0,0,0,0,0,0,0,0,0,0,
0,0,0,0,0,0,0,0,0,0,0,0,0,0,0,0,
0,0,0,0,0,0,0,0,0,0,0,0,0,0,0,0,
0,0,0,0,0,0,0,0,0,0,0,0,0,0,0,0,
0,0,0,0,0,0,0,0,0,0,0,0,0,426,427,428,
0,0,0,0,0,0,0,0,0,0,0,0,0,459,460,461,
0,0,0,0,0,0,0,0,0,0,0,0,0,492,493,494,
0,0,0,0,0,0,0,0,0,0,0,0,0,525,526,527,
0,0,0,0,0,0,0,0,0,0,0,0,0,558,559,560,
0,0,0,0,0,0,0,0,0,0,0,0,0,558,559,560,
0,0,0,0,0,0,0,0,0,0,0,0,0,558,559,560,
0,0,0,0,0,0,0,0,0,0,0,0,0,558,559,560,
0,0,0,0,0,0,0,0,0,0,0,0,0,0,0,0,
0,0,0,0,0,0,0,0,0,0,0,0,0,0,0,0,
426,426,426,426,426,426,426,426,426,426,426,426,426,426,426,426
</chunk>
   <chunk x="32" y="-64" width="16" height="16">
0,0,0,0,0,0,0,0,0,0,0,0,0,0,0,0,
0,0,0,0,0,0,0,0,0,0,0,0,0,0,0,0,
0,0,0,0,0,0,0,0,0,0,0,0,0,0,0,0,
0,0,0,0,0,0,0,0,0,0,0,0,0,0,0,0,
0,0,0,0,0,0,0,0,0,0,0,0,0,0,0,0,
429,430,431,432,0,0,0,0,0,0,0,0,0,0,0,0,
462,463,464,465,0,0,0,0,0,0,0,0,0,0,0,0,
495,496,497,498,0,0,0,0,0,0,0,0,0,0,0,0,
528,529,530,531,0,0,0,0,0,0,0,0,0,0,0,0,
561,562,563,564,0,0,0,0,0,0,0,0,0,0,0,0,
561,562,563,564,0,0,0,0,0,0,0,0,0,0,0,0,
561,562,563,564,0,0,0,0,0,0,0,0,0,0,0,0,
561,562,563,564,0,0,0,0,0,0,0,0,0,0,0,0,
0,0,0,0,0,0,0,0,0,0,0,0,0,0,0,0,
0,0,0,0,0,0,0,0,0,0,0,0,0,0,0,0,
426,426,426,426,426,426,426,426,426,426,426,426,426,426,427,428
</chunk>
   <chunk x="48" y="-64" width="16" height="16">
0,0,0,0,0,0,0,0,0,0,0,0,0,0,0,0,
0,0,0,0,0,0,0,0,0,0,0,0,0,0,0,0,
0,0,0,0,0,0,0,0,0,0,0,0,0,0,0,0,
0,0,0,0,0,0,0,0,0,0,0,0,0,0,0,0,
0,0,0,0,0,0,0,0,0,0,0,0,0,0,0,0,
0,0,0,0,0,0,0,0,0,0,0,0,0,0,0,0,
0,0,0,0,0,0,0,0,0,0,0,0,0,0,0,0,
0,0,0,0,0,0,0,0,0,0,0,0,0,0,0,0,
0,0,0,0,0,0,0,0,0,0,0,0,0,0,0,0,
0,0,0,0,0,0,0,0,0,0,0,0,0,0,0,0,
0,0,0,0,0,0,0,0,0,0,0,0,0,0,0,0,
0,0,0,0,0,0,0,0,0,0,0,0,0,0,0,0,
0,0,0,0,0,0,0,0,0,0,0,0,0,0,0,0,
0,0,0,0,0,0,0,0,0,0,0,0,0,0,0,0,
0,0,0,0,0,0,0,0,0,0,0,0,0,0,0,0,
429,430,431,432,0,0,0,0,0,0,0,0,0,0,0,0
</chunk>
   <chunk x="-32" y="-48" width="16" height="16">
63,65,66,64,65,66,64,65,66,64,65,66,64,64,64,67,
162,99,99,98,98,99,99,99,98,98,99,99,99,98,98,100,
162,137,137,137,137,137,137,137,137,137,137,137,137,137,137,67,
162,170,170,170,170,170,170,170,170,170,170,170,170,170,170,100,
162,0,0,0,0,0,0,0,0,0,0,0,0,0,0,100,
162,0,0,0,0,0,0,0,0,0,0,0,0,0,0,100,
92,0,0,0,0,0,0,0,0,0,0,0,0,0,0,100,
162,0,0,0,0,0,0,0,0,0,0,0,0,0,0,100,
162,0,0,0,0,0,0,0,0,0,0,0,0,0,0,100,
162,0,0,0,0,0,0,0,0,0,0,0,0,0,0,100,
162,0,0,0,0,0,0,0,0,0,0,0,0,0,0,100,
195,197,197,197,197,197,197,197,197,197,0,0,0,198,198,199,
162,0,0,0,0,0,0,0,0,0,0,0,0,0,0,0,
4913,0,0,0,0,0,0,0,0,0,0,0,0,0,0,0,
4913,0,0,0,0,0,0,0,0,0,0,0,0,0,0,0,
162,0,0,0,0,0,0,0,0,0,0,0,0,0,0,0
</chunk>
   <chunk x="-16" y="-48" width="16" height="16">
0,0,0,0,0,0,0,0,63,65,66,64,65,66,64,65,
0,0,0,0,0,0,0,0,162,99,99,98,98,99,99,99,
65,66,64,65,66,64,65,66,63,137,137,137,137,137,137,137,
98,99,98,98,99,99,99,99,162,170,170,170,170,170,170,170,
137,137,137,137,137,137,137,137,162,0,0,0,0,0,0,0,
170,170,170,170,170,170,170,170,162,0,0,0,0,0,0,0,
0,0,0,0,0,0,0,0,129,0,0,0,0,0,0,0,
0,0,0,0,0,0,0,0,162,0,0,0,0,0,0,0,
0,0,0,0,0,0,0,0,162,0,0,0,0,0,0,0,
0,0,0,0,0,0,0,0,195,197,197,197,197,197,197,197,
0,0,0,0,0,0,0,0,0,0,0,0,0,0,0,0,
0,0,0,0,0,0,0,0,0,0,0,0,0,0,0,0,
0,0,0,0,0,0,0,0,0,0,0,0,0,0,0,0,
0,0,0,0,0,0,0,63,66,65,66,64,65,66,64,61,
0,0,0,0,0,0,0,162,99,99,99,99,99,98,99,100,
0,0,0,0,0,0,0,162,137,137,137,137,137,137,137,100
</chunk>
   <chunk x="0" y="-48" width="16" height="16">
66,64,65,66,64,64,64,67,459,459,459,459,459,459,459,459,
98,98,99,99,99,98,98,100,492,492,492,492,492,492,492,492,
137,137,137,137,137,137,137,100,525,525,525,525,525,525,525,525,
170,170,170,170,170,170,170,100,558,558,558,558,558,558,558,558,
0,0,0,0,0,0,0,100,0,0,0,0,0,0,0,0,
0,0,0,0,0,0,0,100,0,0,0,0,0,0,0,0,
0,0,0,0,0,0,0,100,0,0,0,0,0,0,0,0,
0,0,0,0,0,0,0,100,0,0,0,0,0,0,0,0,
0,0,0,0,0,0,0,100,0,0,0,0,0,0,0,0,
197,197,0,0,0,198,198,100,0,0,0,0,0,0,0,0,
0,0,0,0,0,0,0,100,0,0,0,0,0,0,0,0,
0,0,0,0,0,0,0,100,0,0,0,0,0,0,0,0,
0,0,0,0,0,0,0,100,0,0,0,0,0,0,0,0,
0,0,59,65,66,64,67,199,0,0,0,0,0,0,0,0,
0,0,162,99,99,99,100,0,0,0,0,0,0,0,0,0,
0,0,162,137,137,137,100,0,0,0,0,0,0,0,0,0
</chunk>
   <chunk x="16" y="-48" width="16" height="16">
459,459,459,459,459,459,459,459,459,459,459,459,459,459,459,459,
492,492,492,492,492,492,492,492,492,492,492,492,492,492,492,492,
525,525,525,525,525,525,525,525,525,525,525,525,525,525,525,525,
558,558,558,558,558,558,558,558,558,558,558,558,558,558,558,558,
0,0,0,0,0,0,0,0,0,0,0,0,0,0,0,0,
0,0,0,0,0,0,0,0,0,0,0,0,0,0,0,0,
0,0,0,0,0,0,0,0,0,0,0,0,0,0,0,0,
0,0,0,0,0,0,0,0,0,0,0,0,0,0,0,0,
0,0,0,0,0,0,0,0,0,0,0,0,0,0,0,0,
0,0,0,0,0,0,0,0,0,0,0,0,0,0,0,0,
0,0,0,0,0,0,0,0,0,0,0,0,0,0,0,0,
0,0,0,0,0,0,0,0,0,0,0,0,0,0,0,0,
0,0,0,0,0,0,0,0,0,0,0,0,0,0,0,0,
0,0,0,0,0,0,0,0,0,0,0,0,0,0,0,0,
0,0,0,0,0,0,0,0,0,0,0,0,0,0,0,0,
0,0,0,0,0,0,0,0,0,0,0,0,0,0,0,0
</chunk>
   <chunk x="32" y="-48" width="16" height="16">
459,459,459,459,459,459,459,459,459,459,459,459,459,426,427,428,
492,492,492,492,492,492,492,492,492,492,492,492,492,426,427,428,
525,525,525,525,525,525,525,525,525,525,525,525,525,426,427,428,
558,558,558,558,558,558,558,558,558,558,558,558,558,426,427,428,
0,0,0,0,0,0,0,0,0,0,0,0,0,426,427,428,
0,0,0,0,0,0,0,0,0,0,0,0,0,426,427,428,
0,0,0,0,0,0,0,0,0,0,0,0,0,426,427,428,
0,0,0,0,0,0,0,0,0,0,0,0,0,426,427,428,
0,0,0,0,0,0,0,0,0,0,0,0,0,426,427,428,
0,0,0,0,0,0,0,0,0,0,0,0,0,426,427,428,
0,0,0,0,0,0,0,0,0,0,0,0,0,426,427,428,
0,0,0,0,0,0,0,0,0,0,0,0,0,426,427,428,
0,0,0,0,0,0,0,0,0,0,0,0,0,426,427,428,
0,0,0,0,0,0,0,0,0,0,0,0,426,427,428,429,
0,0,0,0,0,0,0,0,0,0,0,0,426,427,428,429,
0,0,0,0,0,0,0,0,0,0,0,0,426,427,428,429
</chunk>
   <chunk x="48" y="-48" width="16" height="16">
429,430,431,432,0,0,0,0,0,0,0,0,0,0,0,0,
429,430,431,432,0,0,0,0,0,0,0,0,0,0,0,0,
429,430,431,432,0,0,0,0,0,0,0,0,0,0,0,0,
429,430,431,432,0,0,0,0,0,0,0,0,0,0,0,0,
429,430,431,432,0,0,0,0,0,0,0,0,0,0,0,0,
429,430,431,432,0,0,0,0,0,0,0,0,0,0,0,0,
429,430,431,432,0,0,0,0,0,0,0,0,0,0,0,0,
429,430,431,432,0,0,0,0,0,0,0,0,0,0,0,0,
429,430,431,432,0,0,0,0,0,0,0,0,0,0,0,0,
429,430,431,432,0,0,0,0,0,0,0,0,0,0,0,0,
429,430,431,432,0,0,0,0,0,0,0,0,0,0,0,0,
429,430,431,432,0,0,0,0,0,0,0,0,0,0,0,0,
429,430,431,432,0,0,0,0,0,0,0,0,0,0,0,0,
430,431,432,465,0,0,200,0,200,0,0,0,0,0,0,0,
430,431,432,498,0,0,0,0,0,0,0,0,0,0,0,0,
430,431,432,531,0,0,0,0,0,0,0,0,0,0,0,0
</chunk>
   <chunk x="-32" y="-32" width="16" height="16">
63,66,64,65,66,64,65,66,64,65,66,64,61,0,0,59,
162,99,98,98,99,99,99,99,99,99,98,99,100,0,0,162,
162,137,137,137,137,137,137,137,137,137,137,137,100,0,0,162,
162,170,170,170,170,170,170,170,170,170,170,170,127,0,0,125,
162,0,0,0,0,0,0,0,0,0,0,0,0,0,0,0,
162,0,0,0,0,0,0,0,0,0,0,0,0,0,0,0,
162,0,0,0,0,0,0,0,0,0,0,0,0,0,0,0,
129,0,0,0,0,0,0,0,0,0,0,0,0,0,0,0,
162,0,0,0,0,0,0,0,0,0,0,0,0,0,0,0,
195,197,198,196,197,198,196,197,198,196,197,198,196,197,198,196,
0,0,0,0,0,0,0,0,0,0,0,0,0,0,0,0,
0,0,0,0,0,0,0,0,0,0,0,0,0,0,0,0,
0,0,0,0,0,0,0,0,0,0,0,0,0,0,0,0,
0,0,0,0,0,0,0,0,0,0,0,0,0,0,0,0,
0,0,0,0,0,0,0,0,0,0,0,0,0,0,0,0,
0,0,0,0,0,0,0,0,0,0,0,0,0,0,0,0
</chunk>
   <chunk x="-16" y="-32" width="16" height="16">
65,66,64,67,0,0,0,162,170,170,170,170,170,170,170,127,
99,99,99,100,0,0,0,162,0,0,0,0,0,0,0,0,
137,137,137,100,0,0,0,162,0,0,0,0,0,0,0,0,
170,170,170,100,0,0,0,162,0,0,0,0,0,0,0,0,
0,0,0,100,0,0,0,129,0,0,0,0,0,0,0,0,
0,0,0,100,0,0,0,162,0,0,0,0,0,0,0,0,
0,0,0,258,198,196,197,257,196,196,197,198,196,197,198,196,
0,0,0,100,0,0,0,0,0,0,0,0,0,0,0,0,
0,0,0,100,0,0,0,0,0,0,0,0,0,0,0,0,
197,198,196,199,0,0,0,0,0,0,0,0,0,0,0,0,
0,0,0,0,0,0,0,0,0,0,0,0,0,0,0,0,
0,0,0,0,0,0,0,0,0,0,0,0,0,0,0,0,
0,0,0,0,0,0,0,0,0,0,0,0,0,0,0,0,
0,0,0,0,0,0,0,0,0,0,0,0,0,0,0,0,
0,0,0,0,0,0,0,0,0,0,0,0,0,0,0,0,
0,0,0,0,0,0,0,0,0,0,0,0,0,0,0,0
</chunk>
   <chunk x="0" y="-32" width="16" height="16">
0,0,125,170,170,170,100,0,0,0,0,0,0,0,0,0,
0,0,0,0,0,0,100,0,0,0,0,0,0,0,0,0,
0,0,0,0,0,0,100,0,0,0,0,0,0,0,0,0,
0,0,0,0,0,0,100,0,0,0,0,0,0,0,0,0,
0,0,0,0,0,0,100,0,0,0,0,0,0,0,0,0,
0,0,0,0,0,0,100,0,0,0,0,0,0,0,0,0,
197,198,196,197,198,196,199,0,0,0,0,0,0,0,0,0,
0,0,0,0,0,0,0,0,0,0,0,0,0,0,0,0,
0,0,0,0,0,0,0,0,0,0,0,0,0,0,0,0,
0,0,0,0,0,0,0,0,0,0,0,0,0,0,0,0,
0,0,0,0,0,0,0,0,0,0,0,0,0,0,0,0,
0,0,0,0,0,0,0,0,0,0,0,0,0,0,0,0,
0,0,0,0,0,0,0,0,0,0,0,0,0,0,0,0,
0,0,0,0,0,0,0,0,0,0,0,0,0,0,0,0,
0,0,0,0,0,0,0,0,0,0,0,0,0,0,0,0,
0,0,0,0,0,0,0,0,0,0,0,0,0,0,0,0
</chunk>
   <chunk x="32" y="-32" width="16" height="16">
0,0,0,0,0,0,0,0,0,0,0,0,426,427,428,429,
0,0,0,0,0,0,0,0,0,0,0,0,426,427,428,429,
0,0,0,0,0,0,0,0,0,0,0,0,426,427,428,429,
0,0,0,0,0,0,0,0,0,0,0,426,427,428,429,430,
0,0,0,0,0,0,0,0,0,0,0,426,427,428,429,430,
0,0,0,0,0,0,0,0,0,0,0,426,427,428,429,430,
0,0,0,0,0,0,0,0,0,0,0,426,427,428,429,430,
0,0,0,0,0,0,0,0,0,0,0,426,427,428,429,430,
0,0,0,426,427,428,429,430,431,432,0,426,427,428,429,430,
0,0,0,459,460,461,462,463,464,465,426,427,428,429,430,431,
0,0,0,492,493,494,495,496,497,498,426,427,428,429,430,431,
0,0,0,525,526,527,528,529,530,531,426,427,428,429,430,431,
0,0,0,558,559,560,561,562,563,564,426,427,428,429,430,431,
0,0,426,558,559,560,561,562,563,564,426,427,428,429,430,431,
0,0,459,558,559,560,561,562,563,564,427,428,429,430,431,432,
0,426,492,558,559,560,561,562,563,564,427,428,429,430,431,432
</chunk>
   <chunk x="48" y="-32" width="16" height="16">
430,431,432,564,0,0,0,0,0,0,0,0,0,0,0,0,
430,431,432,0,0,0,0,0,0,0,0,0,0,0,0,0,
430,431,432,0,0,0,0,0,0,0,0,0,0,0,0,0,
431,432,432,0,0,0,0,0,0,0,0,0,0,0,0,0,
431,432,465,0,0,0,0,0,0,0,0,0,0,0,0,0,
431,432,498,0,0,0,0,0,0,0,0,0,0,0,0,0,
431,432,531,0,0,0,0,0,0,0,0,0,0,0,0,0,
431,432,564,0,0,0,0,0,0,0,0,0,0,0,0,0,
431,432,0,0,0,0,0,0,0,0,0,0,0,0,0,0,
432,465,0,0,0,0,0,0,0,0,0,0,0,0,0,0,
432,498,0,0,0,0,0,0,0,0,0,0,0,0,0,0,
432,531,0,0,0,0,0,0,0,0,0,0,0,0,0,0,
432,564,0,0,0,0,0,0,0,0,0,0,0,0,0,0,
432,0,0,0,0,0,0,0,0,0,0,0,0,0,0,0,
465,0,0,0,0,0,0,0,0,0,0,0,0,0,0,0,
498,0,0,0,0,0,0,0,0,0,0,0,0,0,0,0
</chunk>
   <chunk x="32" y="-16" width="16" height="16">
0,459,525,558,559,560,561,562,563,564,428,429,430,431,432,465,
0,492,558,558,559,560,561,562,563,564,429,430,431,432,432,498,
0,525,558,559,560,561,562,563,564,428,429,430,431,432,465,531,
0,558,559,560,561,562,563,564,428,429,430,431,432,432,498,564,
0,558,559,560,561,562,563,564,432,432,432,432,432,465,531,0,
0,558,559,560,561,562,563,564,465,465,465,465,465,498,564,0,
0,558,559,560,561,562,563,564,498,498,498,498,498,531,0,0,
0,558,559,560,561,562,563,564,531,531,531,531,531,564,0,0,
0,0,558,559,560,561,562,563,564,564,564,564,564,0,0,0,
0,0,0,0,0,0,0,0,0,0,0,0,0,0,0,0,
0,0,0,0,0,0,0,0,0,0,0,0,0,0,0,0,
0,0,0,0,0,0,0,0,0,0,0,0,0,0,0,0,
0,0,0,0,0,0,0,0,0,0,0,0,0,0,0,0,
0,0,0,0,0,0,0,0,0,0,0,0,0,0,0,0,
0,0,0,0,0,0,0,0,0,0,0,0,0,0,0,0,
0,0,0,0,0,0,0,0,0,0,0,0,0,0,0,0
</chunk>
   <chunk x="48" y="-16" width="16" height="16">
531,0,0,0,0,0,0,0,0,0,0,0,0,0,0,0,
564,0,0,0,0,0,0,0,0,0,0,0,0,0,0,0,
0,0,0,0,0,0,0,0,0,0,0,0,0,0,0,0,
0,0,0,0,0,0,0,0,0,0,0,0,0,0,0,0,
0,0,0,0,0,0,0,0,0,0,0,0,0,0,0,0,
0,0,0,0,0,0,0,0,0,0,0,0,0,0,0,0,
0,0,0,0,0,0,0,0,0,0,0,0,0,0,0,0,
0,0,0,0,0,0,0,0,0,0,0,0,0,0,0,0,
0,0,0,0,0,0,0,0,0,0,0,0,0,0,0,0,
0,0,0,0,0,0,0,0,0,0,0,0,0,0,0,0,
0,0,0,0,0,0,0,0,0,0,0,0,0,0,0,0,
0,0,0,0,0,0,0,0,0,0,0,0,0,0,0,0,
0,0,0,0,0,0,0,0,0,0,0,0,0,0,0,0,
0,0,0,0,0,0,0,0,0,0,0,0,0,0,0,0,
0,0,0,0,0,0,0,0,0,0,0,0,0,0,0,0,
0,0,0,0,0,0,0,0,0,0,0,0,0,0,0,0
</chunk>
  </data>
 </layer>
 <layer id="3" name="Furniture" width="30" height="20">
  <data encoding="csv">
   <chunk x="-32" y="-48" width="16" height="16">
0,0,0,0,0,0,0,0,0,0,0,0,0,0,0,0,
0,0,0,1535,0,0,0,0,1535,0,1426,1427,0,0,0,0,
0,772,0,1575,0,640,641,0,1575,0,1466,1467,0,0,0,0,
0,812,0,0,0,680,681,0,0,0,1506,1507,0,0,0,0,
0,0,0,0,1155,1156,1157,1158,0,0,0,0,0,0,0,0,
0,0,0,0,1195,1196,1197,1198,0,0,0,0,0,0,0,0,
0,0,1005,1006,1235,1236,1237,1238,1003,1004,0,0,0,0,0,0,
0,0,1045,1046,0,588,589,0,1043,1044,0,0,0,0,0,0,
0,0,1085,1086,0,628,629,0,1083,1084,0,0,0,0,0,0,
0,0,0,0,0,0,0,0,0,0,0,0,0,0,0,0,
0,0,0,0,0,0,0,0,0,0,0,0,0,0,0,0,
0,0,0,0,0,0,0,0,0,0,0,0,0,0,0,0,
0,0,0,0,0,0,0,0,0,0,0,0,0,0,0,0,
0,0,0,0,0,0,0,0,0,0,0,0,0,0,0,0,
0,0,0,0,0,0,0,0,0,0,0,0,0,0,0,0,
0,0,0,0,0,0,0,0,0,0,0,0,0,0,0,0
</chunk>
   <chunk x="-16" y="-48" width="16" height="16">
0,0,0,0,0,0,0,0,0,0,0,0,0,0,0,0,
0,0,0,0,0,0,0,0,0,0,0,0,717,718,0,839,
0,0,0,0,0,0,0,0,0,0,0,0,757,758,0,879,
0,0,0,1093,1094,0,0,0,0,0,0,0,797,798,0,919,
772,0,0,1133,1134,0,0,772,0,0,0,0,0,0,0,0,
812,0,0,0,0,0,0,812,0,0,906,907,908,909,910,0,
0,0,0,0,0,0,0,0,0,0,946,947,948,949,950,0,
0,0,0,0,0,0,0,0,0,0,986,987,988,989,990,0,
0,0,0,0,0,0,0,0,0,0,0,0,0,0,0,0,
0,0,0,0,0,0,0,0,0,0,0,0,0,0,0,1419,
0,0,0,0,0,0,0,0,0,0,0,0,0,0,0,0,
0,0,0,0,0,0,0,0,0,0,0,0,0,0,0,0,
0,0,0,0,0,0,0,0,0,0,0,0,0,0,0,0,
0,0,0,0,0,0,0,0,0,0,0,0,0,0,0,0,
0,0,0,0,0,0,0,0,0,0,0,0,0,0,0,0,
0,0,0,0,0,0,0,0,0,0,0,0,0,638,639,0
</chunk>
   <chunk x="0" y="-48" width="16" height="16">
0,0,0,602,603,0,0,0,0,0,0,0,0,0,0,0,
840,0,0,642,643,835,836,0,0,0,0,0,0,0,0,0,
880,881,882,883,884,875,876,0,0,0,0,0,0,0,0,0,
920,921,922,923,924,915,916,0,0,0,0,0,0,0,0,0,
0,0,0,0,0,0,0,0,0,0,0,0,0,0,0,0,
0,0,0,0,0,0,0,0,0,0,0,0,0,0,0,0,
0,0,0,0,0,0,0,0,0,0,0,0,0,0,0,0,
0,0,0,0,0,0,0,0,0,0,0,0,0,0,0,0,
0,0,0,0,0,0,0,0,0,0,0,0,0,0,0,0,
0,0,0,0,0,0,0,0,0,0,0,0,0,0,0,0,
0,0,0,0,0,0,0,0,0,0,0,0,0,0,0,0,
0,0,0,0,0,0,0,0,0,0,0,0,0,0,0,0,
0,0,0,0,0,0,0,0,0,0,0,0,0,0,0,0,
0,0,0,0,0,0,0,0,0,0,0,0,0,0,0,0,
0,0,0,0,0,0,0,0,0,0,0,0,0,0,0,0,
0,0,0,0,638,639,0,0,0,0,0,0,0,0,0,0
</chunk>
   <chunk x="-32" y="-32" width="16" height="16">
0,0,0,0,0,0,0,0,0,0,0,0,0,0,0,0,
0,1693,1694,1695,1696,1697,1698,1699,1700,1701,0,0,0,0,0,0,
0,1733,1734,1735,1736,1737,1738,1739,1740,1741,772,0,0,0,0,0,
0,1773,1774,1775,1776,1777,1778,1779,1780,1781,812,0,0,0,0,0,
0,1813,1814,1815,1816,1817,1818,1819,1820,1821,0,0,0,0,0,0,
0,1853,1854,1855,1856,1857,1858,1859,1860,1861,0,0,0,0,0,0,
0,1893,1894,1895,1896,1897,1898,1899,1900,1901,0,0,0,0,0,0,
0,1933,1934,1935,1936,1937,1938,1939,1940,1941,0,0,0,0,0,630,
0,0,0,0,0,0,0,0,0,0,0,0,0,0,0,0,
0,0,0,0,0,0,0,0,0,0,0,0,0,0,0,0,
0,0,0,0,0,0,0,0,0,0,0,0,0,0,0,0,
0,0,0,0,0,0,0,0,0,0,0,0,0,0,0,0,
0,0,0,0,0,0,0,0,0,0,0,0,0,0,0,0,
0,0,0,0,0,0,0,0,0,0,0,0,0,0,0,0,
0,0,0,0,0,0,0,0,0,0,0,0,0,0,0,0,
0,0,0,0,0,0,0,0,0,0,0,0,0,0,0,0
</chunk>
   <chunk x="-16" y="-32" width="16" height="16">
0,0,0,0,0,0,0,0,0,0,0,0,0,678,679,0,
0,0,0,0,0,0,0,0,0,0,0,0,0,0,0,0,
0,638,639,0,0,0,0,0,0,0,0,0,0,0,0,0,
0,678,679,0,0,0,0,0,0,0,0,0,0,0,1893,1894,
0,0,0,0,0,0,0,0,0,0,0,0,0,0,1933,1934,
1003,1004,0,0,0,0,0,0,0,0,0,0,0,0,0,0,
1043,1044,0,0,0,0,0,0,0,0,0,0,0,0,0,0,
1083,1084,0,0,0,0,0,0,0,0,0,0,0,0,0,0,
0,0,0,0,0,0,0,0,0,0,0,0,0,0,0,0,
0,0,0,0,0,0,0,0,0,0,0,0,0,0,0,0,
0,0,0,0,0,0,0,0,0,0,0,0,0,0,0,0,
0,0,0,0,0,0,0,0,0,0,0,0,0,0,0,0,
0,0,0,0,0,0,0,0,0,0,0,0,0,0,0,0,
0,0,0,0,0,0,0,0,0,0,0,0,0,0,0,0,
0,0,0,0,0,0,0,0,0,0,0,0,0,0,0,0,
0,0,0,0,0,0,0,0,0,0,0,0,0,0,0,0
</chunk>
   <chunk x="0" y="-32" width="16" height="16">
0,0,0,0,678,679,0,0,0,0,0,0,0,0,0,0,
0,0,0,0,0,0,0,0,0,0,0,0,0,0,0,0,
0,0,0,0,0,0,0,0,0,0,0,0,0,0,0,0,
1895,1896,1893,1894,1895,1896,0,0,0,0,0,0,0,0,0,0,
1935,1936,1933,1934,1935,1936,0,0,0,0,0,0,0,0,0,0,
0,0,0,0,0,0,0,0,0,0,0,0,0,0,0,0,
0,0,0,0,0,0,0,0,0,0,0,0,0,0,0,0,
0,0,0,0,0,0,0,0,0,0,0,0,0,0,0,0,
0,0,0,0,0,0,0,0,0,0,0,0,0,0,0,0,
0,0,0,0,0,0,0,0,0,0,0,0,0,0,0,0,
0,0,0,0,0,0,0,0,0,0,0,0,0,0,0,0,
0,0,0,0,0,0,0,0,0,0,0,0,0,0,0,0,
0,0,0,0,0,0,0,0,0,0,0,0,0,0,0,0,
0,0,0,0,0,0,0,0,0,0,0,0,0,0,0,0,
0,0,0,0,0,0,0,0,0,0,0,0,0,0,0,0,
0,0,0,0,0,0,0,0,0,0,0,0,0,0,0,0
</chunk>
  </data>
 </layer>
</map>
