<?xml version="1.0" encoding="UTF-8"?>
<map version="1.10" tiledversion="1.11.2" orientation="orthogonal" renderorder="right-down" width="30" height="20" tilewidth="16" tileheight="16" infinite="1" nextlayerid="7" nextobjectid="1">
 <tileset firstgid="1" source="Walls.tsx"/>
 <tileset firstgid="562" source="Floortiles.tsx"/>
 <tileset firstgid="586" source="Furnitures.tsx"/>
 <tileset firstgid="1426" source="textiles_BA.tsx"/>
 <tileset firstgid="1635" source="fixtures_BA.tsx"/>
 <tileset firstgid="1726" source="cabinets_BA.tsx"/>
 <layer id="3" name="Tile Layer 3" width="30" height="20">
  <data encoding="csv">
   <chunk x="-16" y="-16" width="16" height="16">
0,0,0,0,0,0,0,0,0,0,0,0,0,0,0,0,
0,0,0,0,0,0,0,0,0,0,0,0,0,0,0,0,
0,0,0,0,0,0,0,0,0,0,0,0,0,0,0,0,
0,0,0,0,0,0,0,0,0,0,0,0,0,0,0,0,
0,0,0,0,0,0,0,0,0,0,0,0,0,0,0,0,
0,0,0,0,0,0,0,0,0,0,0,0,0,0,0,0,
0,0,0,0,0,0,0,0,0,0,0,0,0,0,0,0,
0,0,0,0,0,0,0,0,0,0,0,563,563,0,0,0,
0,0,0,0,0,0,0,0,0,0,0,0,0,0,0,0,
0,0,0,0,0,0,0,0,0,0,0,0,0,0,0,0,
0,0,0,0,0,0,0,0,0,0,0,0,0,0,0,0,
0,0,0,0,0,0,0,0,0,0,0,0,0,0,0,0,
0,0,0,0,0,0,0,0,0,0,0,0,0,0,0,0,
0,0,0,0,0,0,0,0,0,0,0,0,0,0,0,0,
0,0,0,0,0,0,0,0,0,0,0,0,0,0,0,0,
0,0,0,0,0,0,0,0,0,0,0,0,0,0,0,0
</chunk>
   <chunk x="0" y="-16" width="16" height="16">
0,0,0,0,0,0,0,0,0,0,0,0,0,0,0,0,
0,0,0,0,0,0,0,0,0,0,0,0,0,0,0,0,
0,0,0,0,0,0,0,0,0,0,0,0,0,0,0,0,
0,0,0,0,0,0,0,0,0,0,0,0,0,0,0,0,
0,0,0,0,0,0,0,0,0,0,0,0,0,0,0,0,
0,0,0,0,0,0,0,0,0,0,0,0,0,0,0,0,
0,0,0,0,0,0,0,0,0,0,0,0,0,0,0,0,
0,0,0,0,563,0,0,0,0,0,0,0,0,0,0,0,
0,0,0,0,0,0,0,0,0,0,0,0,0,0,0,0,
0,0,0,0,0,0,0,0,0,0,0,0,0,0,0,0,
0,0,0,0,0,0,0,0,0,0,0,0,0,0,0,0,
0,0,0,0,0,0,0,0,0,0,0,0,0,0,0,0,
0,0,0,0,0,0,0,0,0,0,0,0,0,0,0,0,
0,0,0,0,0,0,0,0,0,0,0,0,0,0,0,0,
0,0,0,0,0,0,0,0,0,0,0,0,0,0,0,0,
0,0,0,0,0,0,0,0,0,0,0,0,0,0,0,0
</chunk>
   <chunk x="16" y="-16" width="16" height="16">
0,0,0,0,0,0,0,0,0,0,0,0,0,0,0,0,
0,0,0,0,0,0,0,0,0,0,0,0,0,0,0,0,
0,0,0,0,0,0,0,0,0,0,0,0,0,0,0,0,
0,0,0,0,0,0,0,0,0,0,0,0,0,0,0,0,
0,0,0,0,0,0,0,0,0,0,0,0,0,0,0,0,
0,0,0,0,0,0,0,0,0,0,0,0,0,0,0,0,
0,0,0,0,0,0,0,0,0,0,0,0,0,0,0,0,
0,0,0,0,0,0,0,0,0,0,0,0,0,0,0,0,
0,0,0,0,0,0,0,0,0,0,0,0,0,0,0,0,
0,0,0,0,0,0,0,0,0,0,0,0,0,0,0,0,
0,0,0,0,0,0,0,0,0,0,0,0,0,0,0,0,
0,0,0,0,0,0,0,0,0,0,0,0,0,0,0,0,
0,0,0,0,0,0,0,0,0,0,0,0,0,0,0,0,
0,0,0,0,0,0,0,0,0,0,0,0,0,0,0,0,
0,0,0,0,0,0,0,0,0,0,0,0,0,0,0,0,
0,0,566,0,0,0,0,0,0,0,0,0,0,0,0,0
</chunk>
  </data>
 </layer>
 <layer id="2" name="Floor" width="30" height="20">
  <data encoding="csv">
   <chunk x="-48" y="-32" width="16" height="16">
0,0,0,0,0,0,0,0,0,0,0,0,0,0,0,0,
0,0,0,0,0,0,0,0,0,0,0,0,0,0,0,0,
0,0,0,0,0,0,0,0,0,0,0,0,0,0,0,0,
0,0,0,0,0,0,0,0,0,0,0,0,0,0,0,0,
0,0,0,0,0,0,0,0,0,0,0,0,0,0,0,0,
0,0,0,0,0,0,0,0,0,0,0,0,0,0,0,0,
0,0,0,0,0,0,0,0,0,0,0,0,0,0,1273,1274,
0,0,0,0,0,0,0,0,0,0,0,0,0,0,1273,1274,
0,0,0,0,0,0,0,0,0,0,0,0,0,0,1273,1274,
0,0,0,0,0,0,0,0,0,0,0,0,0,0,1313,1314,
0,0,0,0,0,0,0,0,0,0,0,0,0,0,1353,1354,
0,0,0,0,0,0,0,0,0,0,0,0,0,0,1393,1394,
0,0,0,0,0,0,0,0,0,0,0,0,0,0,1393,1394,
0,0,0,0,0,0,0,0,0,0,0,0,0,0,1393,1394,
0,0,0,0,0,0,0,0,0,0,0,0,0,0,1393,1394,
0,0,0,0,0,0,0,0,0,0,0,0,0,0,1393,1394
</chunk>
   <chunk x="-32" y="-32" width="16" height="16">
0,0,0,0,0,0,0,0,0,0,0,0,0,0,0,0,
0,0,0,0,0,0,0,0,0,0,0,0,0,0,0,0,
0,0,0,0,0,0,0,0,0,0,0,0,0,0,0,0,
0,0,0,0,0,0,0,0,0,0,0,0,0,0,0,0,
0,0,0,0,0,0,0,0,0,0,0,0,0,0,0,0,
0,0,0,0,0,0,0,0,0,0,0,0,0,0,0,0,
1275,1276,1277,1278,0,0,0,0,0,0,0,0,0,0,0,0,
1275,1276,1277,1278,0,0,0,0,0,0,0,0,0,0,0,0,
1275,1276,1277,1278,0,0,0,0,0,0,0,0,0,0,0,0,
1315,1316,1317,1318,0,0,0,0,0,0,0,0,0,0,0,0,
1355,1356,1357,1358,0,0,0,0,0,0,0,0,0,0,0,0,
1395,1396,1397,1398,0,0,0,0,0,0,0,0,0,0,0,0,
1395,1396,1397,1398,0,0,0,0,0,0,0,0,0,0,0,0,
1395,1396,1397,1398,0,0,0,0,0,0,0,0,0,0,0,0,
1395,1396,1397,1398,0,0,1273,1274,1275,1276,1277,1278,1278,1273,1273,1273,
1395,1396,1397,1398,1278,1273,1274,1275,1276,1277,1278,1318,1318,1313,1313,1313
</chunk>
   <chunk x="-16" y="-32" width="16" height="16">
0,0,0,0,0,0,0,0,0,0,0,0,0,0,0,0,
0,0,0,0,0,0,0,0,0,0,0,0,0,0,0,0,
0,0,0,0,0,0,0,0,0,0,0,0,0,0,0,0,
0,0,0,0,0,0,0,0,0,0,0,0,0,0,0,0,
0,0,0,0,0,0,0,0,0,0,0,0,0,0,0,0,
0,0,0,0,0,0,0,0,0,0,0,0,0,0,0,0,
0,0,0,0,0,0,0,0,0,0,0,0,0,0,0,0,
0,0,0,0,0,0,0,0,0,0,0,0,0,0,0,0,
0,0,0,0,0,0,0,0,0,0,0,0,0,0,0,0,
0,0,0,0,0,0,0,0,0,0,0,0,0,0,0,0,
0,0,0,0,0,0,0,0,0,0,0,0,0,0,0,0,
0,0,0,0,0,0,0,0,0,0,0,0,0,0,0,0,
0,0,0,0,0,0,0,0,0,0,0,0,0,0,0,0,
0,0,0,0,1273,1273,1273,1273,1273,1274,1275,1276,1277,1278,1278,1278,
1273,1273,1273,1273,1313,1313,1313,1313,1273,1273,1273,1273,1273,1273,1273,1273,
1313,1313,1313,1313,1353,1353,1353,1353,1313,1313,1313,1313,1313,1313,1313,1313
</chunk>
   <chunk x="0" y="-32" width="16" height="16">
0,0,0,0,0,0,0,0,0,0,0,0,0,0,0,0,
0,0,0,0,0,0,0,0,0,0,0,0,0,0,0,0,
0,0,0,0,0,0,0,0,0,0,0,0,0,0,0,0,
0,0,0,0,0,0,0,0,0,0,0,0,0,0,0,0,
0,0,0,0,0,0,0,0,0,0,0,0,0,0,0,0,
0,0,0,0,0,0,0,0,0,0,0,0,0,0,0,0,
0,0,0,0,0,0,0,0,0,0,0,0,0,0,0,0,
0,0,0,0,0,0,0,0,0,0,0,0,0,0,0,0,
0,0,0,0,0,0,0,0,0,0,0,0,0,0,0,0,
0,0,0,0,0,0,0,0,0,0,0,0,0,0,0,0,
0,0,0,0,0,0,0,0,0,0,0,0,0,0,0,0,
0,0,0,0,0,0,0,0,0,0,0,0,0,0,0,0,
0,0,0,0,0,0,0,0,0,0,0,0,0,0,0,0,
1273,1273,1273,1273,1273,1273,1273,1273,1273,1273,1273,1273,1273,1273,1273,1274,
1313,1313,1313,1313,1273,1274,1275,1276,1277,1278,1278,1278,1278,1278,1278,1278,
1353,1353,1353,1353,1313,1314,1315,1316,1317,1318,1318,1318,1318,1318,1318,1318
</chunk>
   <chunk x="16" y="-32" width="16" height="16">
0,0,0,0,0,0,0,0,0,0,0,0,0,0,0,0,
0,0,0,0,0,0,0,0,0,0,0,0,0,0,0,0,
0,0,0,0,0,0,0,0,0,0,0,0,0,0,0,0,
0,0,0,0,0,0,0,0,0,0,0,0,0,0,0,0,
0,0,0,0,0,0,0,0,0,0,0,0,0,0,0,0,
0,0,0,0,0,0,0,0,0,0,0,0,0,0,0,0,
0,0,0,0,0,0,0,0,0,0,0,0,0,0,0,0,
0,0,0,0,0,0,0,0,0,0,0,0,0,0,0,0,
0,0,0,0,0,0,0,0,0,0,0,0,0,0,0,0,
0,0,0,0,0,0,0,0,0,0,0,0,0,0,0,0,
0,0,0,0,0,0,0,0,0,0,0,0,0,0,0,0,
0,0,0,0,0,0,0,0,0,0,0,0,0,0,0,0,
0,0,0,0,0,0,0,0,0,0,0,0,0,0,0,0,
1275,1276,1277,1278,0,0,0,0,0,0,0,0,0,0,0,0,
1278,1278,1278,1278,0,0,0,0,0,0,0,0,0,0,0,0,
1318,1318,1318,1318,0,0,0,0,0,0,0,0,0,0,0,0
</chunk>
   <chunk x="-48" y="-16" width="16" height="16">
0,0,0,0,0,0,0,0,0,0,0,0,0,0,1393,1394,
0,0,0,0,0,0,0,0,0,0,0,0,0,0,1393,1394,
0,0,0,0,0,0,0,0,0,0,0,0,0,0,1393,1394,
0,0,0,0,0,0,0,0,0,0,0,0,0,0,1393,1394,
0,0,0,0,0,0,0,0,0,0,0,0,0,0,1393,1394,
0,0,0,0,0,0,0,0,0,0,0,0,0,0,1393,1394,
0,0,0,0,0,0,0,0,0,0,0,0,0,0,1393,1394,
0,0,0,0,0,0,0,0,0,0,0,0,0,0,1393,1394,
0,0,0,0,0,0,0,0,0,0,0,0,0,0,1393,1394,
0,0,0,0,0,0,0,0,0,0,0,0,0,0,1393,1394,
0,0,0,0,0,0,0,0,0,0,0,0,0,0,1273,1393,
0,0,0,0,0,0,0,0,0,0,0,0,0,0,1273,1393,
0,0,0,0,0,0,0,0,0,0,0,0,0,1273,1274,1393,
0,0,0,0,0,0,0,0,0,0,0,0,0,1273,1274,1393,
0,0,0,0,0,0,0,0,0,0,0,0,0,1273,1274,1393,
0,0,0,0,0,0,0,0,0,0,0,0,0,1273,1274,1313
</chunk>
   <chunk x="-32" y="-16" width="16" height="16">
1395,1396,1397,1398,1278,1273,1274,1275,1276,1277,1278,1358,1358,1353,1353,1353,
1395,1396,1397,1398,1278,1278,1274,1275,1276,1277,1278,1398,1398,1393,1393,1393,
1395,1396,1397,1398,1278,1318,1278,1278,1275,1276,1277,1278,1398,565,572,567,
1395,1396,1397,1398,1278,1358,1318,1318,1278,1278,1278,1278,1278,572,572,565,
1395,1396,1397,1398,1275,1276,1277,1278,1318,1318,1318,1318,1318,567,567,566,
1395,1396,1397,1398,1275,1276,1277,1278,1358,1358,1358,1358,1358,571,567,573,
1395,1396,1397,1398,1275,1276,1277,1278,1398,1398,1398,1398,1398,567,566,572,
1395,1396,1397,1398,1278,1276,1277,1278,1395,1396,1397,1398,1318,566,572,566,
1395,1396,1397,1398,1318,1276,1277,1278,1395,1396,1397,1398,0,573,566,573,
1395,1396,1397,1398,1358,1276,1277,1278,1395,1396,1397,1398,1398,572,565,572,
1394,1395,1396,1397,1398,1276,1277,1278,1394,1395,1396,1397,1398,573,571,566,
1394,1395,1396,1397,1398,1275,1276,1277,1278,1395,1396,1397,1398,572,566,571,
1394,1395,1396,1397,1398,1278,1276,1277,1278,1395,1396,1397,1398,573,573,572,
1394,1395,1396,1397,1398,1318,1276,1277,1278,1395,1396,1397,1398,572,573,573,
1394,1395,1396,1397,1398,1358,1278,1277,1278,1395,1396,1397,1398,565,567,566,
1393,1394,1395,1396,1397,1398,1318,1277,1278,1395,1396,1397,1398,571,571,567
</chunk>
   <chunk x="-16" y="-16" width="16" height="16">
1353,1353,1353,1353,1393,1393,1393,1393,1353,1353,1353,1273,1274,1275,1276,1273,
1393,1393,1393,1393,1393,1394,1395,1396,1393,1393,1393,1313,1314,1315,1316,1313,
567,573,567,573,565,565,565,572,571,572,567,1353,1354,1355,1356,1353,
572,566,571,572,567,567,571,566,566,571,565,1393,1394,1395,1396,1393,
565,566,572,571,571,573,566,566,566,567,566,41,573,567,567,567,
566,572,566,567,573,567,566,565,573,571,571,74,565,571,572,571,
573,567,572,565,573,567,573,573,567,565,567,108,571,571,573,571,
565,572,565,572,571,565,571,567,571,565,573,140,567,573,571,571,
573,573,572,573,565,567,571,572,567,567,571,565,567,567,566,571,
571,572,566,567,567,573,565,567,567,571,567,566,566,566,572,573,
571,572,567,572,566,571,573,567,567,573,565,567,565,572,567,566,
566,567,573,573,571,571,571,573,572,566,565,572,571,572,573,572,
573,571,566,571,566,565,565,571,573,571,573,567,571,573,571,567,
571,565,567,573,565,567,573,573,573,572,566,567,566,573,566,567,
572,572,572,566,573,566,571,573,566,573,565,572,572,566,565,567,
573,565,572,571,571,571,565,573,571,571,566,571,571,572,565,565
</chunk>
   <chunk x="0" y="-16" width="16" height="16">
1274,1275,1276,1277,1278,1354,1355,1356,1357,1358,1358,1358,1358,1358,1358,1358,
1314,1315,1316,1317,1318,1394,1395,1396,1397,1398,1398,1398,1398,1398,1398,1398,
1354,1355,1356,1357,1358,562,562,562,562,562,562,562,562,562,562,562,
1394,1395,1396,1397,1398,562,562,562,562,562,562,562,562,562,562,562,
566,566,573,571,41,562,562,562,562,562,562,562,562,562,562,562,
571,573,572,565,74,565,571,565,572,566,565,565,565,573,572,572,
565,567,567,565,108,565,572,567,567,565,565,565,565,566,572,573,
573,573,572,571,140,573,565,573,571,565,566,566,566,571,566,572,
566,567,571,573,565,573,572,565,571,565,566,573,573,573,572,571,
571,572,567,567,566,572,571,566,573,565,571,566,571,566,566,573,
573,571,566,573,565,572,573,566,572,572,572,567,567,566,571,567,
566,567,565,573,571,573,573,571,566,572,565,565,567,571,567,573,
573,566,567,572,565,565,565,567,573,565,565,572,573,565,573,566,
573,565,565,567,573,566,567,566,571,566,571,565,567,565,573,567,
567,566,573,566,567,565,567,571,567,572,565,573,567,571,572,571,
565,565,566,567,0,0,0,0,0,0,0,565,567,566,567,0
</chunk>
   <chunk x="16" y="-16" width="16" height="16">
1358,1358,1358,1358,1274,1275,1276,1277,1278,0,0,0,0,0,0,0,
1398,1398,1398,1398,1274,1275,1276,1277,1278,0,0,0,0,0,0,0,
562,562,562,1273,1274,1275,1276,1277,1278,0,0,0,0,0,0,0,
562,562,562,1273,1274,1275,1276,1277,1278,0,0,0,0,0,0,0,
562,562,562,1273,1274,1275,1276,1277,1278,0,0,0,0,0,0,0,
567,565,566,1273,1274,1275,1276,1277,1278,0,0,0,0,0,0,0,
565,573,573,1273,1274,1275,1276,1277,1278,0,0,0,0,0,0,0,
567,573,571,1273,1273,1274,1275,1276,1277,1278,0,0,0,0,0,0,
565,571,566,1313,1273,1274,1275,1276,1277,1278,0,0,0,0,0,0,
572,567,572,0,1274,1275,1276,1277,1278,1278,0,0,0,0,0,0,
571,571,565,1273,1274,1275,1276,1277,1278,1318,0,0,0,0,0,0,
573,565,567,1273,1274,1275,1276,1277,1278,1358,0,0,0,0,0,0,
573,572,565,1273,1274,1275,1276,1277,1278,1398,0,0,0,0,0,0,
573,567,571,1273,1274,1275,1276,1277,1278,0,0,0,0,0,0,0,
565,573,566,1273,1274,1275,1276,1277,1278,0,0,0,0,0,0,0,
0,0,174,0,1275,1276,1277,1278,1278,0,0,0,0,0,0,0
</chunk>
   <chunk x="-48" y="0" width="16" height="16">
0,0,0,0,0,0,0,0,0,0,0,0,0,1273,1274,1353,
0,0,0,0,0,0,0,0,0,0,0,0,0,1273,1274,1393,
0,0,0,0,0,0,0,0,0,0,0,0,0,1273,1274,1393,
0,0,0,0,0,0,0,0,0,0,0,0,0,1273,1273,1393,
0,0,0,0,0,0,0,0,0,0,0,0,0,1273,1313,1393,
0,0,0,0,0,0,0,0,0,0,0,0,0,1273,1353,1393,
0,0,0,0,0,0,0,0,0,0,0,0,0,1273,1393,1394,
0,0,0,0,0,0,0,0,0,0,0,0,0,1313,1393,1394,
0,0,0,0,0,0,0,0,0,0,0,0,0,1353,1393,1394,
0,0,0,0,0,0,0,0,0,0,0,0,0,1393,1393,1394,
0,0,0,0,0,0,0,0,0,0,0,0,0,0,0,0,
0,0,0,0,0,0,0,0,0,0,0,0,0,0,0,0,
0,0,0,0,0,0,0,0,0,0,0,0,0,0,0,0,
0,0,0,0,0,0,0,0,0,0,0,0,0,0,0,0,
0,0,0,0,0,0,0,0,0,0,0,0,0,0,0,0,
0,0,0,0,0,0,0,0,0,0,0,0,0,0,0,0
</chunk>
   <chunk x="-32" y="0" width="16" height="16">
1393,1394,1395,1396,1397,1398,1358,1277,1278,1395,1396,0,0,566,573,567,
1394,1393,1394,1395,1396,1397,1398,1277,1278,1395,1396,1397,1398,571,572,567,
1394,1393,1394,1395,1396,1397,1398,1277,1278,1395,1396,1397,1398,567,566,566,
1394,1393,1394,1395,1396,1397,1398,1278,1278,1395,1396,1397,1398,573,572,573,
1394,1393,1394,1395,1396,1397,1398,1318,1278,1395,1396,1397,1398,567,572,572,
1394,1393,1394,1395,1396,1397,1398,1358,1278,1395,1396,1397,1398,571,571,567,
1395,1396,1393,1394,1395,1396,1397,1398,1318,1395,1396,1397,1398,566,571,571,
1395,1396,1393,1394,1395,1396,1397,1398,1358,1395,1396,1397,1398,572,572,567,
1395,1396,1397,1393,1394,1395,1396,1397,1398,1395,1396,1397,1398,572,573,571,
1395,1396,1397,1393,1394,1395,1396,1397,1398,1395,1396,1397,1398,571,566,565,
0,0,0,1393,1394,1395,1396,1397,1398,1395,1396,1397,1398,567,565,567,
0,0,0,1393,1394,1395,1396,1397,1398,1395,1396,1397,1398,566,572,565,
0,0,0,1273,1274,1275,1276,1393,1394,1395,1396,1397,1398,1278,1278,1278,
0,0,0,1313,1314,1315,1316,1317,1318,1318,1318,1318,1318,1318,1318,1318,
0,0,0,1353,1354,1355,1356,1357,1358,1358,1358,1358,1358,1358,1358,1358,
0,0,0,1393,1394,1395,1396,1397,1398,1398,1398,1398,1398,1398,1398,1398
</chunk>
   <chunk x="-16" y="0" width="16" height="16">
572,572,567,572,573,566,573,566,565,566,572,565,567,565,573,573,
565,565,571,565,572,572,573,571,566,573,567,566,571,573,571,567,
573,565,567,567,566,565,565,565,566,566,566,566,573,565,567,566,
572,572,566,572,573,571,573,571,566,566,565,572,567,566,565,571,
567,566,571,566,572,567,571,567,566,572,573,572,573,573,571,567,
565,572,567,573,572,571,567,573,566,567,571,565,572,572,571,571,
566,565,565,567,571,567,566,567,566,571,572,566,565,573,567,573,
565,573,573,572,565,567,567,571,565,566,566,573,571,567,566,566,
567,565,565,573,567,567,567,566,566,573,573,567,573,566,573,566,
572,567,572,566,571,573,573,567,565,571,565,572,572,572,566,1273,
573,571,572,566,572,565,571,567,571,567,573,565,572,573,567,1313,
567,567,573,565,565,566,566,566,573,567,566,565,571,565,565,1353,
1278,1278,1278,1278,1278,1278,1278,1278,1278,1278,1278,1278,1278,1278,1278,1278,
1318,1318,1318,1318,1318,1318,1318,1318,1318,1318,1318,1318,1318,1318,1318,1318,
1358,1358,1358,1358,1358,1358,1358,1358,1358,1358,1358,1358,1358,1358,1358,1358,
1398,1398,1398,1398,1398,1398,1398,1398,1398,1398,1398,1398,1398,1398,1398,1398
</chunk>
   <chunk x="0" y="0" width="16" height="16">
565,567,566,567,0,0,0,0,0,0,0,572,572,573,567,0,
572,572,571,567,0,0,0,0,0,0,0,567,565,572,566,0,
573,571,565,572,572,572,572,567,571,571,571,565,567,571,565,572,
573,567,571,573,566,565,573,565,571,567,565,567,565,566,573,566,
566,566,573,566,565,571,567,573,571,567,572,573,565,571,573,572,
567,572,566,573,565,566,573,573,571,565,566,572,566,566,572,571,
571,567,573,565,572,573,567,565,567,567,566,572,571,573,565,565,
572,566,571,571,565,565,572,573,572,565,566,571,573,573,566,572,
567,571,569,568,569,570,570,564,563,563,570,569,568,570,562,564,
1274,1275,1276,1277,1278,1278,1278,1318,1318,1318,1278,1278,1278,1273,1274,1275,
1314,1315,1316,1317,1318,1318,1278,1358,1358,1358,1318,1318,1318,1278,1278,1278,
1354,1355,1356,1357,1358,1358,1318,1398,1398,1398,1358,1358,1358,1318,1318,1318,
1278,1395,1396,1397,1398,1398,1358,1396,1397,1398,1398,1398,1398,1358,1358,1358,
1318,1394,1395,1396,1397,1398,1398,1393,1394,1395,1396,1397,1398,1398,1398,1398,
1358,0,0,0,0,0,0,0,0,0,0,0,0,0,0,0,
1398,0,0,0,0,0,0,0,0,0,0,0,0,0,0,0
</chunk>
   <chunk x="16" y="0" width="16" height="16">
0,0,1273,1274,1275,1276,1277,1278,1318,0,0,0,0,0,0,0,
0,0,1273,1274,1275,1276,1277,1278,1358,0,0,0,0,0,0,0,
572,571,1273,1273,1274,1275,1276,1277,1278,0,0,0,0,0,0,0,
571,565,0,1273,1274,1275,1276,1277,1278,0,0,0,0,0,0,0,
572,571,1353,1273,1274,1275,1276,1277,1278,0,0,0,0,0,0,0,
565,565,1273,1274,1275,1276,1277,1278,1278,0,0,0,0,0,0,0,
566,571,1273,1274,1275,1276,1277,1278,1318,0,0,0,0,0,0,0,
572,567,1273,1274,1275,1276,1277,1278,1358,0,0,0,0,0,0,0,
568,569,1273,1274,1275,1276,1277,1278,1398,0,0,0,0,0,0,0,
1276,1277,1278,1278,1278,1278,1278,1278,0,0,0,0,0,0,0,0,
1278,1278,1278,1318,1318,1318,1318,1318,0,0,0,0,0,0,0,0,
1318,1318,1318,1358,1358,1358,1358,1358,0,0,0,0,0,0,0,0,
1358,1358,1358,1398,1398,1398,1398,1398,0,0,0,0,0,0,0,0,
1398,1398,1398,0,0,0,0,0,0,0,0,0,0,0,0,0,
0,0,0,0,0,0,0,0,0,0,0,0,0,0,0,0,
0,0,0,0,0,0,0,0,0,0,0,0,0,0,0,0
</chunk>
  </data>
 </layer>
 <layer id="1" name="Walls" width="30" height="20">
  <data encoding="csv">
   <chunk x="-32" y="-16" width="16" height="16">
0,0,0,0,0,0,0,0,0,0,0,0,0,0,0,0,
0,0,0,0,0,0,0,0,0,0,0,0,0,0,0,0,
0,0,0,0,0,0,0,0,0,0,0,0,39,41,42,40,
0,0,0,0,0,0,0,0,0,0,0,0,138,75,75,74,
0,0,0,0,0,0,0,0,0,0,0,0,138,113,113,113,
0,0,0,0,0,0,0,0,0,0,0,0,138,146,146,146,
0,0,0,0,0,0,0,0,0,0,0,0,138,0,0,0,
0,0,0,0,0,0,0,0,0,0,0,0,138,0,0,0,
0,0,0,0,0,0,0,0,0,0,0,0,72,0,0,0,
0,0,0,0,0,0,0,0,0,0,0,0,138,0,0,0,
0,0,0,0,0,0,0,0,0,0,0,0,138,0,0,0,
0,0,0,0,0,0,0,0,0,0,0,0,138,0,0,0,
0,0,0,0,0,0,0,0,0,0,0,0,138,0,0,0,
0,0,0,0,0,0,0,0,0,0,0,0,171,173,173,173,
0,0,0,0,0,0,0,0,0,0,0,0,138,0,0,0,
0,0,0,0,0,0,0,0,0,0,0,0,138,0,0,0
</chunk>
   <chunk x="-16" y="-16" width="16" height="16">
0,0,0,0,0,0,0,0,0,0,0,0,0,0,0,0,
0,0,0,0,0,0,0,0,0,0,0,0,0,0,0,0,
41,42,40,41,42,40,41,42,40,40,40,43,0,0,0,0,
74,75,75,75,74,74,75,75,75,74,74,76,0,0,0,0,
113,113,113,113,113,113,113,113,113,113,113,236,41,42,40,41,
146,146,146,146,146,146,146,146,146,146,146,269,74,75,74,74,
0,0,0,0,0,0,0,0,0,0,0,302,113,113,113,113,
0,0,0,0,0,0,0,0,0,0,0,335,146,146,146,146,
0,0,0,0,0,0,0,0,0,0,0,0,0,0,0,0,
0,0,0,0,0,0,0,0,0,0,0,0,0,0,0,0,
0,0,0,0,0,0,0,0,0,0,0,0,0,0,0,0,
0,0,0,0,0,0,0,0,0,0,0,174,173,173,173,173,
0,0,0,0,0,0,0,0,0,0,0,76,0,0,0,0,
173,173,173,173,173,173,0,0,0,174,174,175,0,0,0,0,
0,0,0,0,0,0,0,0,0,0,0,0,0,0,0,0,
0,0,0,0,0,0,0,0,0,0,0,0,0,0,0,0
</chunk>
   <chunk x="0" y="-16" width="16" height="16">
0,0,0,0,0,0,0,0,0,0,0,0,0,0,0,0,
0,0,0,0,0,0,0,0,0,0,0,0,0,0,0,0,
0,0,0,0,39,41,42,40,41,42,40,41,42,40,41,42,
0,0,0,0,138,75,75,74,74,75,75,75,74,74,75,75,
42,40,41,42,39,113,113,113,113,113,113,113,113,113,113,113,
75,75,75,75,138,146,146,146,146,146,146,146,146,146,146,146,
113,113,113,113,138,0,0,0,0,0,0,0,0,0,0,0,
146,146,146,146,138,0,0,0,0,0,0,0,0,0,0,0,
0,0,0,0,105,0,0,0,0,0,0,0,0,0,0,0,
0,0,0,0,138,0,0,0,0,0,0,0,0,0,0,0,
0,0,0,0,138,0,0,0,0,0,0,0,0,0,0,0,
173,173,173,173,171,173,173,173,173,173,173,173,173,173,0,0,
0,0,0,0,0,0,0,0,0,0,0,0,0,0,0,0,
0,0,0,0,0,0,0,0,0,0,0,0,0,0,0,0,
0,0,0,0,0,0,0,0,0,0,0,0,0,0,0,0,
0,0,0,39,42,42,42,42,42,42,42,37,0,0,35,36
</chunk>
   <chunk x="16" y="-16" width="16" height="16">
0,0,0,0,0,0,0,0,0,0,0,0,0,0,0,0,
0,0,0,0,402,402,0,0,0,0,0,0,0,0,0,0,
40,40,40,43,435,435,0,0,0,0,0,0,0,0,0,0,
75,74,74,76,468,468,0,0,0,0,0,0,0,0,0,0,
113,113,113,76,501,501,0,0,0,0,0,0,0,0,0,0,
146,146,146,76,534,534,0,0,0,0,0,0,0,0,0,0,
0,0,0,76,0,0,0,0,0,0,0,0,0,0,0,0,
0,0,0,76,0,0,0,0,0,0,0,0,0,0,0,0,
0,0,0,76,0,0,0,0,0,0,0,0,0,0,0,0,
0,0,0,76,0,0,0,0,0,0,0,0,0,0,0,0,
0,0,0,76,0,0,0,0,0,0,0,0,0,0,0,0,
0,174,174,76,0,0,0,0,0,0,0,0,0,0,0,0,
0,0,0,76,0,0,0,0,0,0,0,0,0,0,0,0,
0,0,0,76,0,0,0,0,0,0,0,0,0,0,0,0,
0,0,0,76,0,0,0,0,0,0,0,0,0,0,0,0,
36,36,43,175,0,0,0,0,0,0,0,0,0,0,0,0
</chunk>
   <chunk x="-32" y="0" width="16" height="16">
0,0,0,0,0,0,0,0,0,0,0,0,72,0,0,0,
0,0,0,0,0,0,0,0,0,0,0,0,138,0,0,0,
0,0,0,0,0,0,0,0,0,0,0,0,39,42,40,41,
0,0,0,0,0,0,0,0,0,0,0,0,138,75,74,74,
0,0,0,0,0,0,0,0,0,0,0,0,138,113,113,113,
0,0,0,0,0,0,0,0,0,0,0,0,138,146,146,146,
0,0,0,0,0,0,0,0,0,0,0,0,138,0,0,0,
0,0,0,0,0,0,0,0,0,0,0,0,138,0,0,0,
0,0,0,0,0,0,0,0,0,0,0,0,138,0,0,0,
0,0,0,0,0,0,0,0,0,0,0,0,105,0,0,0,
0,0,0,0,0,0,0,0,0,0,0,0,138,0,0,0,
0,0,0,0,0,0,0,0,0,0,0,0,171,173,174,172,
0,0,0,0,0,0,0,0,0,0,0,0,0,0,0,0,
0,0,0,0,0,0,0,0,0,0,0,0,0,0,0,0,
0,0,0,0,0,0,0,0,0,0,0,0,0,0,0,0,
0,0,0,0,0,0,0,0,0,0,0,0,0,0,0,0
</chunk>
   <chunk x="-16" y="0" width="16" height="16">
0,0,0,0,0,0,0,0,0,0,0,0,0,0,0,0,
0,0,0,0,0,0,0,0,0,0,0,0,0,0,0,0,
42,40,41,42,40,41,42,40,37,0,0,35,41,42,40,43,
75,75,75,75,75,75,74,75,76,0,0,138,75,75,75,76,
113,113,113,113,113,113,113,113,76,0,0,138,113,113,113,76,
146,146,146,146,146,146,146,146,103,0,0,101,146,146,146,76,
0,0,0,0,0,0,0,0,0,0,0,0,0,0,0,76,
0,0,0,0,0,0,0,0,0,0,0,0,0,0,0,76,
0,0,0,0,0,0,0,0,0,0,0,0,0,0,0,234,
0,0,0,0,0,0,0,0,0,0,0,0,0,0,0,76,
0,0,0,0,0,0,0,0,0,0,0,0,0,0,0,76,
173,174,172,173,174,172,173,174,172,173,174,172,173,174,172,175,
0,0,0,0,0,0,0,0,0,0,0,0,0,0,0,0,
0,0,0,0,0,0,0,0,0,0,0,0,0,0,0,0,
0,0,0,0,0,0,0,0,0,0,0,0,0,0,0,0,
0,0,0,0,0,0,0,0,0,0,0,0,0,0,0,0
</chunk>
   <chunk x="0" y="0" width="16" height="16">
0,0,0,138,75,75,75,75,75,75,75,76,0,0,138,75,
0,0,0,138,108,108,108,108,108,108,108,76,0,0,138,108,
0,0,0,138,102,102,102,102,102,102,102,103,0,0,101,102,
0,0,0,138,0,0,0,0,0,0,0,0,0,0,0,0,
0,0,0,138,0,0,0,0,0,0,0,0,0,0,0,0,
0,0,0,138,0,0,0,0,0,0,0,0,0,0,0,0,
0,0,0,105,0,0,0,0,0,0,0,0,0,0,0,0,
0,0,0,138,0,0,0,0,0,0,0,0,0,0,0,0,
174,172,173,233,172,172,173,174,172,173,174,172,173,174,172,173,
0,0,0,0,0,0,0,0,0,0,0,0,0,0,0,0,
0,0,0,0,0,0,0,0,0,0,0,0,0,0,0,0,
0,0,0,0,0,0,0,0,0,0,0,0,0,0,0,0,
0,0,0,0,0,0,0,0,0,0,0,0,0,0,0,0,
0,0,0,0,0,0,0,0,0,0,0,0,0,0,0,0,
0,0,0,0,0,0,0,0,0,0,0,0,0,0,0,0,
0,0,0,0,0,0,0,0,0,0,0,0,0,0,0,0
</chunk>
   <chunk x="16" y="0" width="16" height="16">
75,75,76,0,0,0,0,0,0,0,0,0,0,0,0,0,
108,108,76,0,0,0,0,0,0,0,0,0,0,0,0,0,
102,102,76,0,0,0,0,0,0,0,0,0,0,0,0,0,
0,0,76,0,0,0,0,0,0,0,0,0,0,0,0,0,
0,0,76,0,0,0,0,0,0,0,0,0,0,0,0,0,
0,0,76,0,0,0,0,0,0,0,0,0,0,0,0,0,
0,0,76,0,0,0,0,0,0,0,0,0,0,0,0,0,
0,0,76,0,0,0,0,0,0,0,0,0,0,0,0,0,
174,172,175,0,0,0,0,0,0,0,0,0,0,0,0,0,
0,0,0,0,0,0,0,0,0,0,0,0,0,0,0,0,
0,0,0,0,0,0,0,0,0,0,0,0,0,0,0,0,
0,0,0,0,0,0,0,0,0,0,0,0,0,0,0,0,
0,0,0,0,0,0,0,0,0,0,0,0,0,0,0,0,
0,0,0,0,0,0,0,0,0,0,0,0,0,0,0,0,
0,0,0,0,0,0,0,0,0,0,0,0,0,0,0,0,
0,0,0,0,0,0,0,0,0,0,0,0,0,0,0,0
</chunk>
  </data>
 </layer>
 <layer id="4" name="Tile Layer 4" width="30" height="20">
  <data encoding="csv">
   <chunk x="-32" y="-16" width="16" height="16">
0,0,0,0,0,0,0,0,0,0,0,0,0,0,0,0,
0,0,0,0,0,0,0,0,0,0,0,0,0,0,0,0,
0,0,0,0,0,0,0,0,0,0,0,0,0,0,0,0,
0,0,0,0,0,0,0,0,0,0,0,0,0,0,0,0,
0,0,0,0,0,0,0,0,0,0,0,0,0,772,0,662,
0,0,0,0,0,0,0,0,0,0,0,0,0,812,0,702,
0,0,0,0,0,0,0,0,0,0,0,0,0,0,0,742,
0,0,0,0,0,0,0,0,0,0,0,0,0,0,0,782,
0,0,0,0,0,0,0,0,0,0,0,0,0,0,0,0,
0,0,0,0,0,0,0,0,0,0,0,0,0,0,0,0,
0,0,0,0,0,0,0,0,0,0,0,0,0,0,0,0,
0,0,0,0,0,0,0,0,0,0,0,0,0,0,0,0,
0,0,0,0,0,0,0,0,0,0,0,0,0,0,0,0,
0,0,0,0,0,0,0,0,0,0,0,0,0,0,0,0,
0,0,0,0,0,0,0,0,0,0,0,0,0,0,0,0,
0,0,0,0,0,0,0,0,0,0,0,0,0,0,0,0
</chunk>
   <chunk x="-16" y="-16" width="16" height="16">
0,0,0,0,0,0,0,0,0,0,0,0,0,0,0,0,
0,0,0,0,0,0,0,0,0,0,0,0,0,0,0,0,
0,0,0,0,0,0,0,0,0,0,0,0,0,0,0,0,
0,0,0,0,0,0,0,0,0,0,0,0,0,0,0,0,
663,664,605,0,0,0,0,0,0,0,772,0,0,0,0,0,
703,704,645,0,0,0,830,831,832,0,812,0,0,1097,1098,0,
743,744,0,0,0,0,870,871,872,0,0,0,0,1137,1138,0,
783,784,0,0,0,0,0,0,0,0,0,0,0,0,0,0,
0,0,0,0,0,0,0,0,0,0,0,0,0,0,0,0,
861,862,863,0,0,0,0,0,0,0,0,0,0,0,0,0,
901,902,903,0,0,0,0,0,0,0,0,0,0,0,0,0,
941,942,943,0,0,0,0,0,0,0,0,0,0,0,0,0,
0,0,0,0,0,0,0,0,0,0,0,0,0,0,0,0,
0,0,0,0,0,0,0,0,0,0,0,0,0,0,0,0,
0,0,0,0,0,0,0,0,0,0,0,0,0,0,0,0,
0,0,0,0,0,0,0,0,0,0,0,0,0,0,0,0
</chunk>
   <chunk x="0" y="-16" width="16" height="16">
0,0,0,0,0,0,0,0,0,0,0,0,0,0,0,0,
0,0,0,0,0,0,0,0,0,0,0,0,0,0,0,0,
0,0,0,0,0,0,0,0,0,0,0,0,0,0,0,0,
0,0,0,0,0,1674,1675,1676,1677,1678,1679,1742,0,0,0,0,
0,0,0,0,0,1687,1649,1650,1651,1652,1692,1752,1654,1655,1656,0,
595,596,597,0,0,1700,1662,1663,1664,1665,1705,1762,1667,1668,1669,0,
635,636,637,0,0,1713,1714,1715,1716,1717,1718,0,0,0,0,0,
675,676,677,0,0,0,0,0,0,0,0,0,0,0,0,0,
0,0,0,0,0,0,0,0,0,0,0,0,0,0,0,0,
0,0,0,0,0,0,0,0,0,0,0,0,0,0,0,0,
0,0,0,0,0,0,0,0,0,0,0,0,0,0,0,0,
0,0,0,0,173,0,0,0,0,0,0,0,0,0,0,0,
0,0,0,0,0,0,0,0,0,0,0,0,0,0,0,0,
0,0,0,0,0,0,0,0,0,0,0,0,0,0,0,0,
0,0,0,0,0,0,0,0,0,0,0,0,0,0,0,0,
0,0,0,0,0,0,0,0,0,0,0,0,0,0,0,0
</chunk>
   <chunk x="16" y="-16" width="16" height="16">
0,0,0,0,0,0,0,0,0,0,0,0,0,0,0,0,
0,0,0,0,0,0,0,0,0,0,0,0,0,0,0,0,
0,0,0,0,0,0,0,0,0,0,0,0,0,0,0,0,
0,0,0,0,0,0,0,0,0,0,0,0,0,0,0,0,
1571,1658,1659,0,0,0,0,0,0,0,0,0,0,0,0,0,
1590,1671,1672,0,0,0,0,0,0,0,0,0,0,0,0,0,
0,1684,1685,0,0,0,0,0,0,0,0,0,0,0,0,0,
0,0,0,0,0,0,0,0,0,0,0,0,0,0,0,0,
0,0,0,0,0,0,0,0,0,0,0,0,0,0,0,0,
0,0,0,0,0,0,0,0,0,0,0,0,0,0,0,0,
0,0,0,0,0,0,0,0,0,0,0,0,0,0,0,0,
0,0,0,0,0,0,0,0,0,0,0,0,0,0,0,0,
0,0,0,0,0,0,0,0,0,0,0,0,0,0,0,0,
0,0,0,0,0,0,0,0,0,0,0,0,0,0,0,0,
0,0,0,0,0,0,0,0,0,0,0,0,0,0,0,0,
0,0,0,0,0,0,0,0,0,0,0,0,0,0,0,0
</chunk>
   <chunk x="-32" y="0" width="16" height="16">
0,0,0,0,0,0,0,0,0,0,0,0,0,0,0,0,
0,0,0,0,0,0,0,0,0,0,0,0,0,0,0,0,
0,0,0,0,0,0,0,0,0,0,0,0,0,0,0,0,
0,0,0,0,0,0,0,0,0,0,0,0,0,0,0,0,
0,0,0,0,0,0,0,0,0,0,0,0,0,0,0,0,
0,0,0,0,0,0,0,0,0,0,0,0,0,2147484309,2147484308,2147484307,
0,0,0,0,0,0,0,0,0,0,0,0,0,2147484349,2147484348,2147484347,
0,0,0,0,0,0,0,0,0,0,0,0,0,2147484389,2147484388,2147484387,
0,0,0,0,0,0,0,0,0,0,0,0,0,0,0,0,
0,0,0,0,0,0,0,0,0,0,0,0,0,0,0,0,
0,0,0,0,0,0,0,0,0,0,0,0,0,0,0,0,
0,0,0,0,0,0,0,0,0,0,0,0,0,0,0,0,
0,0,0,0,0,0,0,0,0,0,0,0,0,0,0,0,
0,0,0,0,0,0,0,0,0,0,0,0,0,0,0,0,
0,0,0,0,0,0,0,0,0,0,0,0,0,0,0,0,
0,0,0,0,0,0,0,0,0,0,0,0,0,0,0,0
</chunk>
   <chunk x="-16" y="0" width="16" height="16">
0,0,0,0,0,0,0,0,0,0,0,0,0,0,0,0,
0,0,0,0,0,0,0,0,0,0,0,0,0,0,0,0,
0,0,0,0,0,0,0,0,0,0,0,0,0,0,0,0,
0,0,0,0,1135,1136,0,0,0,0,0,0,0,0,0,0,
0,0,0,0,640,641,0,0,0,0,0,0,0,0,0,0,
2147484306,0,0,0,680,681,0,0,0,0,0,0,0,0,0,0,
2147484346,0,0,0,0,0,0,0,0,0,0,0,0,0,0,0,
2147484386,0,0,0,0,0,0,0,0,0,0,0,0,0,0,0,
0,0,0,0,0,0,0,0,0,0,0,0,0,0,0,0,
0,0,0,0,0,0,0,0,0,0,0,0,0,0,0,0,
0,0,0,0,0,0,0,0,0,0,0,0,0,0,0,0,
0,0,0,0,0,0,0,0,0,0,0,0,0,0,0,0,
0,0,0,0,0,0,0,0,0,0,0,0,0,0,0,0,
0,0,0,0,0,0,0,0,0,0,0,0,0,0,0,0,
0,0,0,0,0,0,0,0,0,0,0,0,0,0,0,0,
0,0,0,0,0,0,0,0,0,0,0,0,0,0,0,0
</chunk>
  </data>
 </layer>
 <layer id="6" name="Tile Layer 5" width="30" height="20">
  <data encoding="csv">
   <chunk x="-32" y="-16" width="16" height="16">
0,0,0,0,0,0,0,0,0,0,0,0,0,0,0,0,
0,0,0,0,0,0,0,0,0,0,0,0,0,0,0,0,
0,0,0,0,0,0,0,0,0,0,0,0,0,0,0,0,
0,0,0,0,0,0,0,0,0,0,0,0,0,0,0,0,
0,0,0,0,0,0,0,0,0,0,0,0,0,0,0,0,
0,0,0,0,0,0,0,0,0,0,0,0,0,0,0,0,
0,0,0,0,0,0,0,0,0,0,0,0,0,0,0,0,
0,0,0,0,0,0,0,0,0,0,0,0,0,0,0,0,
0,0,0,0,0,0,0,0,0,0,0,0,0,0,0,0,
0,0,0,0,0,0,0,0,0,0,0,0,0,0,0,1165,
0,0,0,0,0,0,0,0,0,0,0,0,0,0,0,1205,
0,0,0,0,0,0,0,0,0,0,0,0,0,0,0,1245,
0,0,0,0,0,0,0,0,0,0,0,0,0,0,0,0,
0,0,0,0,0,0,0,0,0,0,0,0,0,0,0,0,
0,0,0,0,0,0,0,0,0,0,0,0,0,0,0,0,
0,0,0,0,0,0,0,0,0,0,0,0,0,0,0,0
</chunk>
   <chunk x="-16" y="-16" width="16" height="16">
0,0,0,0,0,0,0,0,0,0,0,0,0,0,0,0,
0,0,0,0,0,0,0,0,0,0,0,0,0,0,0,0,
0,0,0,0,0,0,0,0,0,0,0,0,0,0,0,0,
0,0,0,0,0,0,0,0,0,0,0,0,0,0,0,0,
0,0,0,0,0,0,0,0,1070,0,0,0,0,0,0,0,
0,0,0,0,0,0,811,0,1110,0,0,0,0,0,0,0,
0,0,0,0,0,0,0,594,0,0,0,0,0,0,0,0,
0,0,0,0,0,0,0,634,0,0,0,0,0,0,0,0,
0,0,0,0,0,0,0,0,0,0,0,0,0,0,0,0,
1166,0,0,0,0,0,0,0,0,0,0,0,0,0,0,0,
1206,630,0,0,0,0,0,0,0,0,0,0,0,0,0,0,
1246,0,0,0,0,0,0,0,0,0,0,0,0,0,0,0,
0,0,0,0,0,0,0,0,0,0,0,0,0,0,0,0,
0,0,0,0,0,0,0,0,0,0,0,0,0,0,0,0,
0,0,0,0,0,0,0,0,0,0,0,0,0,0,0,0,
0,0,0,0,0,0,0,0,0,0,0,0,0,0,0,0
</chunk>
   <chunk x="0" y="-16" width="16" height="16">
0,0,0,0,0,0,0,0,0,0,0,0,0,0,0,0,
0,0,0,0,0,0,0,0,0,0,0,0,0,0,0,0,
0,0,0,0,0,0,0,0,0,0,0,0,0,0,0,0,
0,0,0,0,0,0,0,1560,1561,1562,0,0,0,0,0,0,
0,0,0,0,0,0,0,1579,1580,1581,0,0,0,0,0,0,
0,0,0,0,0,0,0,1598,1599,1600,0,0,0,0,0,0,
0,0,0,0,0,0,0,1471,1472,0,0,0,1492,1493,1494,0,
0,0,0,0,0,0,0,0,0,0,0,0,0,0,0,0,
0,0,0,0,0,0,0,0,0,0,0,0,0,0,0,0,
0,0,0,0,0,0,0,0,0,0,0,0,0,0,0,0,
0,0,0,0,0,0,0,0,0,0,0,0,0,0,0,0,
0,0,0,0,0,0,0,0,0,0,0,0,0,0,0,0,
0,0,0,0,0,0,0,0,0,0,0,0,0,0,0,0,
0,0,0,0,0,0,0,0,0,0,0,0,0,0,0,0,
0,0,0,0,0,0,0,0,0,0,0,0,0,0,0,0,
0,0,0,0,0,0,0,0,0,0,0,0,0,0,0,0
</chunk>
   <chunk x="16" y="-16" width="16" height="16">
0,0,0,0,0,0,0,0,0,0,0,0,0,0,0,0,
0,0,0,0,0,0,0,0,0,0,0,0,0,0,0,0,
0,0,0,0,0,0,0,0,0,0,0,0,0,0,0,0,
0,0,0,0,0,0,0,0,0,0,0,0,0,0,0,0,
0,0,0,0,0,0,0,0,0,0,0,0,0,0,0,0,
0,0,0,0,0,0,0,0,0,0,0,0,0,0,0,0,
0,1455,1456,0,0,0,0,0,0,0,0,0,0,0,0,0,
0,1474,1475,0,0,0,0,0,0,0,0,0,0,0,0,0,
0,0,0,0,0,0,0,0,0,0,0,0,0,0,0,0,
0,0,0,0,0,0,0,0,0,0,0,0,0,0,0,0,
0,0,0,0,0,0,0,0,0,0,0,0,0,0,0,0,
0,0,0,0,0,0,0,0,0,0,0,0,0,0,0,0,
0,0,0,0,0,0,0,0,0,0,0,0,0,0,0,0,
0,0,0,0,0,0,0,0,0,0,0,0,0,0,0,0,
0,0,0,0,0,0,0,0,0,0,0,0,0,0,0,0,
0,0,0,0,0,0,0,0,0,0,0,0,0,0,0,0
</chunk>
  </data>
 </layer>
</map>
